(clamp 20mm)
(Machine)
(  vendor: CNC 40100)
(  description: Generic 3-axis)
(T1 D=5.7 CR=0 - ZMIN=-15.6 - flat end mill)
G90 G94
G17
G21
(When using Fusion for Personal Use, the feedrate of rapid)
(moves is reduced to match the feedrate of cutting moves,)
(which can increase machining time. Unrestricted rapid moves)
(are available with a Fusion Subscription.)
G28 G91 Z0
G90

(2D Pocket4)
M0
(MANUAL TOOL CHANGE TO T1)
S9000 M3
G17 G90 G94
G54
G0 X114.655 Y41.819
Z15
G1 Z5 F1000
Z3.07 F600
S8100
X114.641 Y41.842 Z2.897 F1000
X114.6 Y41.908 Z2.741
X114.541 Y42.014 Z2.616
X114.474 Y42.151 Z2.533
X114.407 Y42.309 Z2.5
G2 X119.464 Y44.247 Z2.203 I2.528 J0.969
X114.407 Y42.309 Z1.906 I-2.528 J-0.969
X119.464 Y44.247 Z1.609 I2.528 J0.969
X114.407 Y42.309 Z1.312 I-2.528 J-0.969
X119.464 Y44.247 Z1.015 I2.528 J0.969
X114.407 Y42.309 Z0.718 I-2.528 J-0.969
X119.464 Y44.247 Z0.421 I2.528 J0.969
X114.407 Y42.309 Z0.124 I-2.528 J-0.969
X119.464 Y44.247 Z-0.173 I2.528 J0.969
X114.407 Y42.309 Z-0.47 I-2.528 J-0.969
X119.464 Y44.247 Z-0.767 I2.528 J0.969
X114.407 Y42.309 Z-1.064 I-2.528 J-0.969
X119.464 Y44.247 Z-1.361 I2.528 J0.969
X114.407 Y42.309 Z-1.658 I-2.528 J-0.969
X119.464 Y44.247 Z-1.955 I2.528 J0.969
X114.407 Y42.309 Z-2.253 I-2.528 J-0.969
X119.464 Y44.247 Z-2.55 I2.528 J0.969
X114.407 Y42.309 Z-2.847 I-2.528 J-0.969
X119.464 Y44.247 Z-3.144 I2.528 J0.969
X114.407 Y42.309 Z-3.441 I-2.528 J-0.969
X119.464 Y44.247 Z-3.738 I2.528 J0.969
X114.407 Y42.309 Z-4.035 I-2.528 J-0.969
X119.464 Y44.247 Z-4.332 I2.528 J0.969
X114.407 Y42.309 Z-4.629 I-2.528 J-0.969
X119.464 Y44.247 Z-4.926 I2.528 J0.969
X114.407 Y42.309 Z-5.223 I-2.528 J-0.969
X119.464 Y44.247 Z-5.52 I2.528 J0.969
X114.407 Y42.309 Z-5.817 I-2.528 J-0.969
X116.936 Y45.986 Z-6 I2.528 J0.969
S9000
G1 X116.948
G2 X114.078 Y45.986 I-1.435 J0
X119.805 Y45.986 I2.864 J0
X111.22 Y45.986 I-4.292 J0
X122.663 Y45.986 I5.721 J0
X108.363 Y45.986 I-7.15 J0
X122.663 Y45.986 I7.15 J0
G1 X122.656 Y45.925
X122.637 Y45.866
X122.605 Y45.814
X122.563 Y45.769
X119.741 Y43.369
X119.7 Y43.327
X119.669 Y43.277
X119.649 Y43.222
X119.641 Y43.164
S8100
G2 X114.23 Y43.392 Z-6.297 I-2.705 J0.114
X119.641 Y43.164 Z-6.594 I2.705 J-0.114
X114.23 Y43.392 Z-6.891 I-2.705 J0.114
X119.641 Y43.164 Z-7.188 I2.705 J-0.114
X114.23 Y43.392 Z-7.485 I-2.705 J0.114
X119.641 Y43.164 Z-7.782 I2.705 J-0.114
X114.23 Y43.392 Z-8.079 I-2.705 J0.114
X119.641 Y43.164 Z-8.376 I2.705 J-0.114
X114.23 Y43.392 Z-8.673 I-2.705 J0.114
X119.641 Y43.164 Z-8.97 I2.705 J-0.114
X114.23 Y43.392 Z-9.267 I-2.705 J0.114
X119.641 Y43.164 Z-9.564 I2.705 J-0.114
X114.23 Y43.392 Z-9.861 I-2.705 J0.114
X119.641 Y43.164 Z-10.158 I2.705 J-0.114
X114.23 Y43.392 Z-10.455 I-2.705 J0.114
X116.936 Y45.986 Z-10.6 I2.705 J-0.114
S9000
G1 X116.948
G2 X114.078 Y45.986 I-1.435 J0
X119.805 Y45.986 I2.864 J0
X111.22 Y45.986 I-4.292 J0
X122.663 Y45.986 I5.721 J0
X108.363 Y45.986 I-7.15 J0
X122.663 Y45.986 I7.15 J0
G1 X122.654 Y45.898 Z-10.586 F800
X122.631 Y45.813 Z-10.572
X122.599 Y45.741 Z-10.532
X122.557 Y45.673 Z-10.491
X122.517 Y45.625 Z-10.428
X122.472 Y45.581 Z-10.365
X122.407 Y45.532 Z-10.206
X122.383 Y45.518 Z-10.03
Z5 F1000
X30.633 Y56.562
Z3.07 F600
S8100
X30.618 Y56.584 Z2.897 F1000
X30.578 Y56.65 Z2.741
X30.519 Y56.756 Z2.616
X30.451 Y56.894 Z2.533
X30.385 Y57.052 Z2.5
G2 X35.441 Y58.99 Z2.203 I2.528 J0.969
X30.385 Y57.052 Z1.906 I-2.528 J-0.969
X35.441 Y58.99 Z1.609 I2.528 J0.969
X30.385 Y57.052 Z1.312 I-2.528 J-0.969
X35.441 Y58.99 Z1.015 I2.528 J0.969
X30.385 Y57.052 Z0.718 I-2.528 J-0.969
X35.441 Y58.99 Z0.421 I2.528 J0.969
X30.385 Y57.052 Z0.124 I-2.528 J-0.969
X35.441 Y58.99 Z-0.173 I2.528 J0.969
X30.385 Y57.052 Z-0.47 I-2.528 J-0.969
X35.441 Y58.99 Z-0.767 I2.528 J0.969
X30.385 Y57.052 Z-1.064 I-2.528 J-0.969
X35.441 Y58.99 Z-1.361 I2.528 J0.969
X30.385 Y57.052 Z-1.658 I-2.528 J-0.969
X35.441 Y58.99 Z-1.955 I2.528 J0.969
X30.385 Y57.052 Z-2.253 I-2.528 J-0.969
X35.441 Y58.99 Z-2.55 I2.528 J0.969
X30.385 Y57.052 Z-2.847 I-2.528 J-0.969
X35.441 Y58.99 Z-3.144 I2.528 J0.969
X30.385 Y57.052 Z-3.441 I-2.528 J-0.969
X35.441 Y58.99 Z-3.738 I2.528 J0.969
X30.385 Y57.052 Z-4.035 I-2.528 J-0.969
X35.441 Y58.99 Z-4.332 I2.528 J0.969
X30.385 Y57.052 Z-4.629 I-2.528 J-0.969
X35.441 Y58.99 Z-4.926 I2.528 J0.969
X30.385 Y57.052 Z-5.223 I-2.528 J-0.969
X35.441 Y58.99 Z-5.52 I2.528 J0.969
X30.385 Y57.052 Z-5.817 I-2.528 J-0.969
X32.913 Y60.728 Z-6 I2.528 J0.969
S9000
G1 X32.926
G2 X30.056 Y60.728 I-1.435 J0
X35.783 Y60.728 I2.864 J0
X27.198 Y60.728 I-4.292 J0
X38.641 Y60.728 I5.721 J0
X24.341 Y60.728 I-7.15 J0
X38.641 Y60.728 I7.15 J0
G1 X38.634 Y60.667
X38.614 Y60.609
X38.583 Y60.556
X38.54 Y60.511
X35.718 Y58.112
X35.678 Y58.07
X35.647 Y58.02
X35.627 Y57.965
X35.618 Y57.907
S8100
G2 X30.208 Y58.135 Z-6.297 I-2.705 J0.114
X35.618 Y57.907 Z-6.594 I2.705 J-0.114
X30.208 Y58.135 Z-6.891 I-2.705 J0.114
X35.618 Y57.907 Z-7.188 I2.705 J-0.114
X30.208 Y58.135 Z-7.485 I-2.705 J0.114
X35.618 Y57.907 Z-7.782 I2.705 J-0.114
X30.208 Y58.135 Z-8.079 I-2.705 J0.114
X35.618 Y57.907 Z-8.376 I2.705 J-0.114
X30.208 Y58.135 Z-8.673 I-2.705 J0.114
X35.618 Y57.907 Z-8.97 I2.705 J-0.114
X30.208 Y58.135 Z-9.267 I-2.705 J0.114
X35.618 Y57.907 Z-9.564 I2.705 J-0.114
X30.208 Y58.135 Z-9.861 I-2.705 J0.114
X35.618 Y57.907 Z-10.158 I2.705 J-0.114
X30.208 Y58.135 Z-10.455 I-2.705 J0.114
X32.913 Y60.728 Z-10.6 I2.705 J-0.114
S9000
G1 X32.926
G2 X30.056 Y60.728 I-1.435 J0
X35.783 Y60.728 I2.864 J0
X27.198 Y60.728 I-4.292 J0
X38.641 Y60.728 I5.721 J0
X24.341 Y60.728 I-7.15 J0
X38.641 Y60.728 I7.15 J0
G1 X38.631 Y60.641 Z-10.586 F800
X38.609 Y60.556 Z-10.572
X38.577 Y60.483 Z-10.532
X38.535 Y60.416 Z-10.491
X38.495 Y60.367 Z-10.428
X38.45 Y60.323 Z-10.365
X38.385 Y60.275 Z-10.206
X38.361 Y60.26 Z-10.03
Z15 F1000
X31.482 Y138.404
Z5
Z3.07 F600
S8100
X31.505 Y138.418 Z2.897 F1000
X31.571 Y138.458 Z2.741
X31.677 Y138.517 Z2.616
X31.814 Y138.585 Z2.533
X31.972 Y138.652 Z2.5
G2 X33.91 Y133.595 Z2.203 I0.969 J-2.528
X31.972 Y138.652 Z1.906 I-0.969 J2.528
X33.91 Y133.595 Z1.609 I0.969 J-2.528
X31.972 Y138.652 Z1.312 I-0.969 J2.528
X33.91 Y133.595 Z1.015 I0.969 J-2.528
X31.972 Y138.652 Z0.718 I-0.969 J2.528
X33.91 Y133.595 Z0.421 I0.969 J-2.528
X31.972 Y138.652 Z0.124 I-0.969 J2.528
X33.91 Y133.595 Z-0.173 I0.969 J-2.528
X31.972 Y138.652 Z-0.47 I-0.969 J2.528
X33.91 Y133.595 Z-0.767 I0.969 J-2.528
X31.972 Y138.652 Z-1.064 I-0.969 J2.528
X33.91 Y133.595 Z-1.361 I0.969 J-2.528
X31.972 Y138.652 Z-1.658 I-0.969 J2.528
X33.91 Y133.595 Z-1.955 I0.969 J-2.528
X31.972 Y138.652 Z-2.253 I-0.969 J2.528
X33.91 Y133.595 Z-2.55 I0.969 J-2.528
X31.972 Y138.652 Z-2.847 I-0.969 J2.528
X33.91 Y133.595 Z-3.144 I0.969 J-2.528
X31.972 Y138.652 Z-3.441 I-0.969 J2.528
X33.91 Y133.595 Z-3.738 I0.969 J-2.528
X31.972 Y138.652 Z-4.035 I-0.969 J2.528
X33.91 Y133.595 Z-4.332 I0.969 J-2.528
X31.972 Y138.652 Z-4.629 I-0.969 J2.528
X33.91 Y133.595 Z-4.926 I0.969 J-2.528
X31.972 Y138.652 Z-5.223 I-0.969 J2.528
X33.91 Y133.595 Z-5.52 I0.969 J-2.528
X31.972 Y138.652 Z-5.817 I-0.969 J2.528
X35.648 Y136.123 Z-6 I0.969 J-2.528
S9000
G1 Y135.328
G2 X35.329 Y135.009 I-0.319 J0
G1 X33.84 Y135.01
G2 X33.52 Y135.329 I0 J0.32
G1 Y136.868
G2 X33.84 Y137.187 I0.319 J0
G1 X35.329
G2 X35.649 Y136.867 I0 J-0.319
G1 X35.648 Y136.123
Y136.122
G3 X36.594 Y134.247 I2.333 J0
G2 X35.937 Y132.251 I-0.658 J-0.889
G1 X35.936
X31.082 Y132.254
G2 X30.763 Y132.574 I0 J0.32
G1 Y139.626
G2 X31.082 Y139.945 I0.319 J0
G1 X38.087 Y139.944
G2 X38.407 Y139.625 I0 J-0.319
G1 X38.405 Y132.569
G2 X38.086 Y132.25 I-0.319 J0
G1 X35.936 Y132.251
G3 X33.867 Y130.874 I-0.001 J-2.24
G2 X31.798 Y129.496 I-2.068 J0.863
G1 X28.325 Y129.498
G2 X28.005 Y129.818 I0 J0.32
G1 Y142.384
G2 X28.325 Y142.703 I0.319 J0
G1 X40.845 Y142.701
G2 X41.165 Y142.382 I0 J-0.319
G1 X41.162 Y129.81
G2 X40.843 Y129.491 I-0.319 J0
G1 X31.798 Y129.496
G3 X29.729 Y128.119 I-0.001 J-2.24
G2 X27.661 Y126.741 I-2.068 J0.863
G1 X25.567 Y126.742
G2 X25.248 Y127.062 I0 J0.32
G1 Y145.142
G2 X25.567 Y145.461 I0.319 J0
G1 X43.603 Y145.458
G2 X43.922 Y145.139 I0 J-0.319
G1 X43.919 Y127.051
G2 X43.6 Y126.732 I-0.319 J0
G1 X27.661 Y126.741
G3 X25.592 Y125.363 I-0.001 J-2.24
G2 X23.523 Y123.986 I-2.068 J0.863
G1 X22.81
G2 X22.49 Y124.306 I0 J0.32
G1 Y147.9
G2 X22.81 Y148.219 I0.319 J0
G1 X46.361 Y148.215
G2 X46.68 Y147.896 I0 J-0.319
G1 X46.676 Y124.292
G2 X46.357 Y123.973 I-0.319 J0
G1 X23.523 Y123.986
G3 X21.812 Y122.755 I-0.001 J-1.803
G2 X19.733 Y123.094 I-1.012 J0.339
G1 Y150.658
G2 X20.052 Y150.977 I0.319 J0
G1 X49.119 Y150.972
G2 X49.438 Y150.653 I0 J-0.319
G1 X49.433 Y121.533
G2 X49.114 Y121.214 I-0.319 J0
G1 X20.052 Y121.23
G2 X19.733 Y121.55 I0 J0.32
G1 Y123.094
G3 X18.354 Y125.162 I-2.24 J0
G2 X16.975 Y127.23 I0.862 J2.068
G1 Y153.416
G2 X17.295 Y153.735 I0.319 J0
G1 X51.877 Y153.729
G2 X52.196 Y153.41 I0 J-0.319
G1 X52.19 Y118.774
G2 X51.871 Y118.455 I-0.319 J0
G1 X17.295 Y118.474
G2 X16.975 Y118.794 I0 J0.32
G1 Y127.23
G3 X15.619 Y129.265 I-2.204 J0
G2 X14.263 Y131.299 I0.848 J2.034
G1 Y154.605
G2 X16.106 Y156.447 I1.843 J0
G1 X53.067 Y156.441
G2 X54.909 Y154.598 I0 J-1.842
G1 X54.908 Y117.661
G2 X53.066 Y115.742 I-1.841 J-0.077
G1 X16.104 Y115.762
G2 X14.263 Y117.605 I0.001 J1.842
G1 Y131.299
G3 X12.859 Y133.405 I-2.281 J0
G2 X11.455 Y135.51 I0.877 J2.106
G1 Y154.605
G2 X16.105 Y159.255 I4.65 J0
G1 X16.106
X53.067 Y159.249
G2 X57.717 Y154.598 I-0.001 J-4.65
G1 X57.71 Y117.898
X57.713 Y117.779
G2 X53.064 Y112.934 I-4.646 J-0.195
G1 X16.103 Y112.955
G2 X11.455 Y117.605 I0.003 J4.65
G1 Y135.51
G2 X11.715 Y135.794 I0.285 J0
G1 X34.877 Y137.83
G2 X35.132 Y137.714 I0.025 J-0.284
S8100
X30.75 Y134.533 Z-6.297 I-2.191 J-1.59
X35.132 Y137.714 Z-6.594 I2.191 J1.59
X30.75 Y134.533 Z-6.891 I-2.191 J-1.59
X35.132 Y137.714 Z-7.188 I2.191 J1.59
X30.75 Y134.533 Z-7.485 I-2.191 J-1.59
X35.132 Y137.714 Z-7.782 I2.191 J1.59
X30.75 Y134.533 Z-8.079 I-2.191 J-1.59
X35.132 Y137.714 Z-8.376 I2.191 J1.59
X30.75 Y134.533 Z-8.673 I-2.191 J-1.59
X35.132 Y137.714 Z-8.97 I2.191 J1.59
X30.75 Y134.533 Z-9.267 I-2.191 J-1.59
X35.132 Y137.714 Z-9.564 I2.191 J1.59
X30.75 Y134.533 Z-9.861 I-2.191 J-1.59
X35.132 Y137.714 Z-10.158 I2.191 J1.59
X30.75 Y134.533 Z-10.455 I-2.191 J-1.59
X35.132 Y137.714 Z-10.753 I2.191 J1.59
X30.75 Y134.533 Z-11.05 I-2.191 J-1.59
X35.132 Y137.714 Z-11.347 I2.191 J1.59
X30.75 Y134.533 Z-11.644 I-2.191 J-1.59
X35.132 Y137.714 Z-11.941 I2.191 J1.59
X35.648 Y136.123 Z-12 I-2.191 J-1.59
S9000
G1 Y135.328
G2 X35.329 Y135.009 I-0.319 J0
G1 X33.84 Y135.01
G2 X33.52 Y135.329 I0 J0.32
G1 Y136.868
G2 X33.84 Y137.187 I0.319 J0
G1 X35.329
G2 X35.649 Y136.867 I0 J-0.319
G1 X35.648 Y136.123
Y136.122
G3 X36.594 Y134.247 I2.333 J0
G2 X35.937 Y132.251 I-0.658 J-0.889
G1 X35.936
X31.082 Y132.254
G2 X30.763 Y132.574 I0 J0.32
G1 Y139.626
G2 X31.082 Y139.945 I0.319 J0
G1 X38.087 Y139.944
G2 X38.407 Y139.625 I0 J-0.319
G1 X38.405 Y132.569
G2 X38.086 Y132.25 I-0.319 J0
G1 X35.936 Y132.251
G3 X33.867 Y130.874 I-0.001 J-2.24
G2 X31.798 Y129.496 I-2.068 J0.863
G1 X28.325 Y129.498
G2 X28.005 Y129.818 I0 J0.32
G1 Y142.384
G2 X28.325 Y142.703 I0.319 J0
G1 X40.845 Y142.701
G2 X41.165 Y142.382 I0 J-0.319
G1 X41.162 Y129.81
G2 X40.843 Y129.491 I-0.319 J0
G1 X31.798 Y129.496
G3 X29.729 Y128.119 I-0.001 J-2.24
G2 X27.661 Y126.741 I-2.068 J0.863
G1 X25.567 Y126.742
G2 X25.248 Y127.062 I0 J0.32
G1 Y145.142
G2 X25.567 Y145.461 I0.319 J0
G1 X43.603 Y145.458
G2 X43.922 Y145.139 I0 J-0.319
G1 X43.919 Y127.051
G2 X43.6 Y126.732 I-0.319 J0
G1 X27.661 Y126.741
G3 X25.592 Y125.363 I-0.001 J-2.24
G2 X23.523 Y123.986 I-2.068 J0.863
G1 X22.81
G2 X22.49 Y124.306 I0 J0.32
G1 Y147.9
G2 X22.81 Y148.219 I0.319 J0
G1 X46.361 Y148.215
G2 X46.68 Y147.896 I0 J-0.319
G1 X46.676 Y124.292
G2 X46.357 Y123.973 I-0.319 J0
G1 X23.523 Y123.986
G3 X21.812 Y122.755 I-0.001 J-1.803
G2 X19.733 Y123.094 I-1.012 J0.339
G1 Y150.658
G2 X20.052 Y150.977 I0.319 J0
G1 X49.119 Y150.972
G2 X49.438 Y150.653 I0 J-0.319
G1 X49.433 Y121.533
G2 X49.114 Y121.214 I-0.319 J0
G1 X20.052 Y121.23
G2 X19.733 Y121.55 I0 J0.32
G1 Y123.094
G3 X18.354 Y125.162 I-2.24 J0
G2 X16.975 Y127.23 I0.862 J2.068
G1 Y153.416
G2 X17.295 Y153.735 I0.319 J0
G1 X51.877 Y153.729
G2 X52.196 Y153.41 I0 J-0.319
G1 X52.19 Y118.774
G2 X51.871 Y118.455 I-0.319 J0
G1 X17.295 Y118.474
G2 X16.975 Y118.794 I0 J0.32
G1 Y127.23
G3 X15.619 Y129.265 I-2.204 J0
G2 X14.263 Y131.299 I0.848 J2.034
G1 Y154.605
G2 X16.106 Y156.447 I1.843 J0
G1 X53.067 Y156.441
G2 X54.909 Y154.598 I0 J-1.842
G1 X54.908 Y117.661
G2 X53.066 Y115.742 I-1.841 J-0.077
G1 X16.104 Y115.762
G2 X14.263 Y117.605 I0.001 J1.842
G1 Y131.299
G3 X12.859 Y133.405 I-2.281 J0
G2 X11.455 Y135.51 I0.877 J2.106
G1 Y154.605
G2 X16.105 Y159.255 I4.65 J0
G1 X16.106
X53.067 Y159.249
G2 X57.717 Y154.598 I-0.001 J-4.65
G1 X57.71 Y117.898
X57.713 Y117.779
G2 X53.064 Y112.934 I-4.646 J-0.195
G1 X16.103 Y112.955
G2 X11.455 Y117.605 I0.003 J4.65
G1 Y135.51
G2 X11.763 Y135.794 I0.285 J0
G1 X14.188 Y135.601
X34.799 Y136.971
X35.308 Y137.182
X35.343 Y137.191
X35.379 Y137.188
X35.413 Y137.174
X35.44 Y137.15
X35.459 Y137.119
S8100
G2 X30.423 Y135.127 Z-12.297 I-2.518 J-0.996
X35.459 Y137.119 Z-12.594 I2.518 J0.996
X30.423 Y135.127 Z-12.891 I-2.518 J-0.996
X35.459 Y137.119 Z-13.188 I2.518 J0.996
X30.423 Y135.127 Z-13.485 I-2.518 J-0.996
X35.459 Y137.119 Z-13.782 I2.518 J0.996
X30.423 Y135.127 Z-14.079 I-2.518 J-0.996
X35.459 Y137.119 Z-14.376 I2.518 J0.996
X30.423 Y135.127 Z-14.673 I-2.518 J-0.996
X35.459 Y137.119 Z-14.97 I2.518 J0.996
X30.423 Y135.127 Z-15.267 I-2.518 J-0.996
X35.459 Y137.119 Z-15.564 I2.518 J0.996
X35.648 Y136.123 Z-15.6 I-2.518 J-0.996
S9000
G1 Y135.328
G2 X35.329 Y135.009 I-0.319 J0
G1 X33.84 Y135.01
G2 X33.52 Y135.329 I0 J0.32
G1 Y136.868
G2 X33.84 Y137.187 I0.319 J0
G1 X35.329
G2 X35.649 Y136.867 I0 J-0.319
G1 X35.648 Y136.123
Y136.122
G3 X36.594 Y134.247 I2.333 J0
G2 X35.937 Y132.251 I-0.658 J-0.889
G1 X35.936
X31.082 Y132.254
G2 X30.763 Y132.574 I0 J0.32
G1 Y139.626
G2 X31.082 Y139.945 I0.319 J0
G1 X38.087 Y139.944
G2 X38.407 Y139.625 I0 J-0.319
G1 X38.405 Y132.569
G2 X38.086 Y132.25 I-0.319 J0
G1 X35.936 Y132.251
G3 X33.867 Y130.874 I-0.001 J-2.24
G2 X31.798 Y129.496 I-2.068 J0.863
G1 X28.325 Y129.498
G2 X28.005 Y129.818 I0 J0.32
G1 Y142.384
G2 X28.325 Y142.703 I0.319 J0
G1 X40.845 Y142.701
G2 X41.165 Y142.382 I0 J-0.319
G1 X41.162 Y129.81
G2 X40.843 Y129.491 I-0.319 J0
G1 X31.798 Y129.496
G3 X29.729 Y128.119 I-0.001 J-2.24
G2 X27.661 Y126.741 I-2.068 J0.863
G1 X25.567 Y126.742
G2 X25.248 Y127.062 I0 J0.32
G1 Y145.142
G2 X25.567 Y145.461 I0.319 J0
G1 X43.603 Y145.458
G2 X43.922 Y145.139 I0 J-0.319
G1 X43.919 Y127.051
G2 X43.6 Y126.732 I-0.319 J0
G1 X27.661 Y126.741
G3 X25.592 Y125.363 I-0.001 J-2.24
G2 X23.523 Y123.986 I-2.068 J0.863
G1 X22.81
G2 X22.49 Y124.306 I0 J0.32
G1 Y147.9
G2 X22.81 Y148.219 I0.319 J0
G1 X46.361 Y148.215
G2 X46.68 Y147.896 I0 J-0.319
G1 X46.676 Y124.292
G2 X46.357 Y123.973 I-0.319 J0
G1 X23.523 Y123.986
G3 X21.812 Y122.755 I-0.001 J-1.803
G2 X19.733 Y123.094 I-1.012 J0.339
G1 Y150.658
G2 X20.052 Y150.977 I0.319 J0
G1 X49.119 Y150.972
G2 X49.438 Y150.653 I0 J-0.319
G1 X49.433 Y121.533
G2 X49.114 Y121.214 I-0.319 J0
G1 X20.052 Y121.23
G2 X19.733 Y121.55 I0 J0.32
G1 Y123.094
G3 X18.354 Y125.162 I-2.24 J0
G2 X16.975 Y127.23 I0.862 J2.068
G1 Y153.416
G2 X17.295 Y153.735 I0.319 J0
G1 X51.877 Y153.729
G2 X52.196 Y153.41 I0 J-0.319
G1 X52.19 Y118.774
G2 X51.871 Y118.455 I-0.319 J0
G1 X17.295 Y118.474
G2 X16.975 Y118.794 I0 J0.32
G1 Y127.23
G3 X15.619 Y129.265 I-2.204 J0
G2 X14.263 Y131.299 I0.848 J2.034
G1 Y154.605
G2 X16.106 Y156.447 I1.843 J0
G1 X53.067 Y156.441
G2 X54.909 Y154.598 I0 J-1.842
G1 X54.908 Y117.661
G2 X53.066 Y115.742 I-1.841 J-0.077
G1 X16.104 Y115.762
G2 X14.263 Y117.605 I0.001 J1.842
G1 Y131.299
G3 X12.859 Y133.405 I-2.281 J0
G2 X11.455 Y135.51 I0.877 J2.106
G1 Y154.605
G2 X16.105 Y159.255 I4.65 J0
G1 X16.106
X53.067 Y159.249
G2 X57.717 Y154.598 I-0.001 J-4.65
G1 X57.71 Y117.898
X57.713 Y117.779
G2 X53.064 Y112.934 I-4.646 J-0.195
G1 X16.103 Y112.955
G2 X11.455 Y117.605 I0.003 J4.65
G1 Y135.51
X11.465 Y135.598 Z-15.586 F800
X11.487 Y135.683 Z-15.572
X11.519 Y135.755 Z-15.532
X11.561 Y135.823 Z-15.491
X11.601 Y135.872 Z-15.428
X11.646 Y135.916 Z-15.365
X11.711 Y135.964 Z-15.206
X11.735 Y135.979 Z-15.03
Z15 F1000
(When using Fusion for Personal Use, the feedrate of rapid)
(moves is reduced to match the feedrate of cutting moves,)
(which can increase machining time. Unrestricted rapid moves)
(are available with a Fusion Subscription.)

(2D Contour4)
G0 X84.749 Y86.712
G1 Z15 F1000
Z5
Z1 F600
Z-5.43
G19 G3 Y87.282 Z-6 J0.57 K0 F800
G1 Y87.852
G17 G2 X85.319 Y88.422 I0.57 J0
G1 X107.658 F1000
G3 X110.508 Y91.272 I0 J2.85
G1 Y195.272
G3 X107.658 Y198.122 I-2.85 J0
G1 X3.658
G3 X0.808 Y195.272 I0 J-2.85
G1 Y91.272
G3 X3.658 Y88.422 I2.85 J0
G1 X85.319
G2 X85.889 Y87.852 I0 J-0.57 F800
G1 Y87.282
G19 G2 Y86.712 Z-5.43 J0 K0.57
G1 Z5 F1000
X84.749
Z-5 F600
Z-11.43
G3 Y87.282 Z-12 J0.57 K0 F800
G1 Y87.852
G17 G2 X85.319 Y88.422 I0.57 J0
G1 X107.658 F1000
G3 X110.508 Y91.272 I0 J2.85
G1 Y195.272
G3 X107.658 Y198.122 I-2.85 J0
G1 X3.658
G3 X0.808 Y195.272 I0 J-2.85
G1 Y91.272
G3 X3.658 Y88.422 I2.85 J0
G1 X85.319
G2 X85.889 Y87.852 I0 J-0.57 F800
G1 Y87.282
G19 G2 Y86.712 Z-11.43 J0 K0.57
G1 Z5 F1000
X84.749
Z-11 F600
Z-15.03
G3 Y87.282 Z-15.6 J0.57 K0 F800
G1 Y87.852
G17 G2 X85.319 Y88.422 I0.57 J0
G1 X107.658 F1000
G3 X110.508 Y91.272 I0 J2.85
G1 Y154.905
Z-14.175
Y166.305
Z-15.6 F600
Y195.272 F1000
G3 X107.658 Y198.122 I-2.85 J0
G1 X9.358
Z-14.175
X3.658
G3 X0.808 Y195.272 I0 J-2.85
G1 Y192.422
Z-15.6 F600
Y91.272 F1000
G3 X3.658 Y88.422 I2.85 J0
G1 X32.624
Z-14.175
X44.024
Z-15.6 F600
X85.319 F1000
G2 X85.889 Y87.852 I0 J-0.57 F800
G1 Y87.282
G19 G2 Y86.712 Z-15.03 J0 K0.57
G1 Z5 F1000
X77.99 Y75.664
Z1 F600
Z-5.43
X77.983 Y75.661 Z-5.519 F800
X77.964 Y75.655 Z-5.606
X77.931 Y75.644 Z-5.689
X77.887 Y75.629 Z-5.765
X77.832 Y75.61 Z-5.833
X77.768 Y75.588 Z-5.891
X77.695 Y75.563 Z-5.938
X77.617 Y75.536 Z-5.972
X77.535 Y75.508 Z-5.993
X77.451 Y75.479 Z-6
X76.911 Y75.295
G17 G2 X76.188 Y75.65 I-0.184 J0.539
G3 X73.491 Y77.578 I-2.697 J-0.922 F1000
G1 X3.491
G3 X0.641 Y74.728 I0 J-2.85
G1 Y4.728
G3 X3.491 Y1.878 I2.85 J0
G1 X73.491
G3 X76.341 Y4.728 I0 J2.85
G1 Y74.728
G3 X76.188 Y75.65 I-2.85 J0
G2 X76.543 Y76.374 I0.539 J0.184 F800
G1 X77.082 Y76.558
X77.166 Y76.587 Z-5.993
X77.249 Y76.615 Z-5.972
X77.327 Y76.642 Z-5.938
X77.399 Y76.666 Z-5.891
X77.463 Y76.688 Z-5.833
X77.518 Y76.707 Z-5.765
X77.563 Y76.722 Z-5.689
X77.595 Y76.733 Z-5.606
X77.615 Y76.74 Z-5.519
X77.621 Y76.742 Z-5.43
Z5 F1000
X77.99 Y75.664
Z-5 F600
Z-11.43
X77.983 Y75.661 Z-11.519 F800
X77.964 Y75.655 Z-11.606
X77.931 Y75.644 Z-11.689
X77.887 Y75.629 Z-11.765
X77.832 Y75.61 Z-11.833
X77.768 Y75.588 Z-11.891
X77.695 Y75.563 Z-11.938
X77.617 Y75.536 Z-11.972
X77.535 Y75.508 Z-11.993
X77.451 Y75.479 Z-12
X76.911 Y75.295
G2 X76.188 Y75.65 I-0.184 J0.539
G3 X73.491 Y77.578 I-2.697 J-0.922 F1000
G1 X3.491
G3 X0.641 Y74.728 I0 J-2.85
G1 Y4.728
G3 X3.491 Y1.878 I2.85 J0
G1 X73.491
G3 X76.341 Y4.728 I0 J2.85
G1 Y74.728
G3 X76.188 Y75.65 I-2.85 J0
G2 X76.543 Y76.374 I0.539 J0.184 F800
G1 X77.082 Y76.558
X77.166 Y76.587 Z-11.993
X77.249 Y76.615 Z-11.972
X77.327 Y76.642 Z-11.938
X77.399 Y76.666 Z-11.891
X77.463 Y76.688 Z-11.833
X77.518 Y76.707 Z-11.765
X77.563 Y76.722 Z-11.689
X77.595 Y76.733 Z-11.606
X77.615 Y76.74 Z-11.519
X77.621 Y76.742 Z-11.43
Z5 F1000
X77.99 Y75.664
Z-11 F600
Z-15.03
X77.983 Y75.661 Z-15.119 F800
X77.964 Y75.655 Z-15.206
X77.931 Y75.644 Z-15.289
X77.887 Y75.629 Z-15.365
X77.832 Y75.61 Z-15.433
X77.768 Y75.588 Z-15.491
X77.695 Y75.563 Z-15.538
X77.617 Y75.536 Z-15.572
X77.535 Y75.508 Z-15.593
X77.451 Y75.479 Z-15.6
X76.911 Y75.295
G2 X76.188 Y75.65 I-0.184 J0.539
G3 X73.491 Y77.578 I-2.697 J-0.922 F1000
G1 X9.191
Z-14.175
X3.491
G3 X0.641 Y74.728 I0 J-2.85
G1 Y71.878
Z-15.6 F600
Y4.728 F1000
G3 X3.491 Y1.878 I2.85 J0
G1 X21.124
Z-14.175
X32.524
Z-15.6 F600
X73.491 F1000
G3 X76.341 Y4.728 I0 J2.85
G1 Y45.695
Z-14.175
Y57.095
Z-15.6 F600
Y74.728 F1000
G3 X76.188 Y75.65 I-2.85 J0
G2 X76.543 Y76.374 I0.539 J0.184 F800
G1 X77.082 Y76.558
X77.166 Y76.587 Z-15.593
X77.249 Y76.615 Z-15.572
X77.327 Y76.642 Z-15.538
X77.399 Y76.666 Z-15.491
X77.463 Y76.688 Z-15.433
X77.518 Y76.707 Z-15.365
X77.563 Y76.722 Z-15.289
X77.595 Y76.733 Z-15.206
X77.615 Y76.74 Z-15.119
X77.621 Y76.742 Z-15.03
Z5 F1000
X91.706 Y74.018
Z1 F600
Z-5.43
X91.711 Y74.013 Z-5.519 F800
X91.727 Y74 Z-5.606
X91.753 Y73.977 Z-5.689
X91.788 Y73.947 Z-5.765
X91.832 Y73.909 Z-5.833
X91.884 Y73.864 Z-5.891
X91.941 Y73.815 Z-5.938
X92.004 Y73.761 Z-5.972
X92.07 Y73.704 Z-5.993
X92.137 Y73.646 Z-6
X92.569 Y73.273
G2 X92.628 Y72.469 I-0.372 J-0.432
G1 X92.336 Y72.13 F1000
X92.299 Y72.087
X91.944 Y71.658
X91.908 Y71.614
X91.564 Y71.18
X91.529 Y71.136
X91.194 Y70.697
X91.161 Y70.652
X90.836 Y70.208
X90.803 Y70.162
X90.488 Y69.714
X90.456 Y69.668
X90.151 Y69.215
X90.121 Y69.169
X89.826 Y68.712
X89.797 Y68.666
X89.511 Y68.204
X89.483 Y68.158
X89.207 Y67.692
X89.169 Y67.626
X88.645 Y66.684
X88.599 Y66.599
X88.109 Y65.645
X88.07 Y65.566
X87.613 Y64.603
X87.579 Y64.53
X87.151 Y63.56
X87.123 Y63.493
X86.723 Y62.518
X86.697 Y62.453
X86.322 Y61.473
X86.297 Y61.405
X85.949 Y60.417
X85.923 Y60.34
X85.601 Y59.338
X85.581 Y59.273
X85.43 Y58.764
X85.416 Y58.715
X85.274 Y58.199
X85.26 Y58.148
X85.125 Y57.623
X85.112 Y57.567
X84.986 Y57.033
X84.973 Y56.975
X84.857 Y56.429
X84.844 Y56.368
X84.738 Y55.81
X84.727 Y55.747
X84.632 Y55.176
X84.621 Y55.11
X84.538 Y54.525
X84.529 Y54.457
X84.458 Y53.856
X84.45 Y53.787
X84.393 Y53.17
X84.387 Y53.099
X84.344 Y52.466
X84.34 Y52.394
X84.312 Y51.743
X84.31 Y51.67
X84.298 Y51.001
Y50.927
X84.304 Y50.24
X84.306 Y50.165
X84.33 Y49.459
X84.334 Y49.384
X84.378 Y48.661
X84.384 Y48.585
X84.449 Y47.844
X84.457 Y47.766
X84.545 Y47.009
X84.555 Y46.93
X84.666 Y46.159
X84.679 Y46.078
X84.815 Y45.293
X84.831 Y45.212
X84.993 Y44.415
X85.011 Y44.333
X85.2 Y43.527
X85.221 Y43.443
X85.439 Y42.629
X85.463 Y42.544
X85.709 Y41.725
X85.736 Y41.641
X86.011 Y40.818
X86.042 Y40.732
X86.347 Y39.909
X86.38 Y39.824
X86.716 Y39.001
X86.752 Y38.915
X87.118 Y38.096
X87.158 Y38.011
X87.554 Y37.197
X87.597 Y37.112
X88.024 Y36.306
X88.07 Y36.222
X88.526 Y35.425
X88.576 Y35.341
X89.062 Y34.555
X89.114 Y34.474
X89.629 Y33.702
X89.685 Y33.621
X90.228 Y32.864
X90.288 Y32.784
X90.859 Y32.045
X90.922 Y31.966
X91.52 Y31.247
X91.586 Y31.17
X92.21 Y30.472
X92.28 Y30.396
X92.928 Y29.721
X93.002 Y29.647
X93.675 Y28.996
X93.752 Y28.924
X94.447 Y28.301
X94.528 Y28.23
X95.245 Y27.635
X95.33 Y27.567
X96.066 Y27.001
X96.155 Y26.935
X96.91 Y26.4
X97.002 Y26.337
X97.774 Y25.835
X97.87 Y25.775
X98.658 Y25.305
X98.758 Y25.248
X99.56 Y24.813
X99.664 Y24.759
X100.479 Y24.36
X100.585 Y24.311
X101.41 Y23.947
X101.521 Y23.901
X102.356 Y23.575
X102.469 Y23.533
X103.312 Y23.244
X103.428 Y23.207
X104.277 Y22.955
X104.394 Y22.923
X105.247 Y22.71
X105.367 Y22.682
X106.223 Y22.507
X106.344 Y22.485
X107.201 Y22.348
X107.322 Y22.331
X108.179 Y22.231
X108.3 Y22.22
X109.154 Y22.157
X109.274 Y22.15
X110.124 Y22.124
X110.242 Y22.123
X111.086 Y22.131
X111.202 Y22.135
X112.038 Y22.177
X112.152 Y22.186
X112.98 Y22.261
X113.093 Y22.274
X113.91 Y22.381
X114.02 Y22.398
X114.826 Y22.536
X114.935 Y22.557
X115.727 Y22.725
X115.834 Y22.75
X116.612 Y22.946
X116.716 Y22.975
X117.479 Y23.199
X117.584 Y23.232
X118.33 Y23.482
X118.433 Y23.519
X119.161 Y23.795
X119.262 Y23.835
X119.972 Y24.136
X120.072 Y24.181
X120.763 Y24.505
X120.862 Y24.554
X121.534 Y24.901
X121.635 Y24.956
X122.285 Y25.327
X122.38 Y25.384
X123.01 Y25.776
X123.108 Y25.839
X123.716 Y26.253
X123.81 Y26.321
X124.396 Y26.755
X124.491 Y26.828
X125.054 Y27.284
X125.143 Y27.359
X125.684 Y27.835
X125.774 Y27.917
X126.291 Y28.413
X126.376 Y28.498
X126.87 Y29.012
X126.952 Y29.103
X127.422 Y29.637
X127.499 Y29.728
X127.946 Y30.28
X128.023 Y30.379
X128.445 Y30.951
X128.515 Y31.05
X128.913 Y31.64
X128.978 Y31.741
X129.352 Y32.349
X129.412 Y32.452
X129.762 Y33.078
X129.819 Y33.185
X130.144 Y33.829
X130.194 Y33.933
X130.495 Y34.595
X130.541 Y34.703
X130.817 Y35.383
X130.857 Y35.487
X131.109 Y36.184
X131.143 Y36.287
X131.371 Y37.003
X131.403 Y37.108
X131.606 Y37.841
X131.632 Y37.944
X131.81 Y38.695
X131.831 Y38.789
X131.986 Y39.557
G3 X132.041 Y40.192 I-2.794 J0.563
G1 X131.999 Y41.869
X134.091 Y49.924
G3 X134.107 Y51.294 I-2.758 J0.717
G1 X133.963 Y51.905
X133.95 Y51.957
X133.795 Y52.564
X133.785 Y52.603
X133.622 Y53.206
X133.607 Y53.258
X133.433 Y53.856
X133.42 Y53.899
X133.237 Y54.492
X133.222 Y54.54
X133.029 Y55.129
X133.014 Y55.173
X132.812 Y55.756
X132.795 Y55.804
X132.583 Y56.383
X132.567 Y56.427
X132.346 Y57.001
X132.327 Y57.049
X132.096 Y57.619
X132.078 Y57.662
X131.838 Y58.227
X131.817 Y58.274
X131.567 Y58.834
X131.546 Y58.881
X131.286 Y59.436
X131.265 Y59.479
X130.996 Y60.029
X130.974 Y60.072
X130.696 Y60.616
X130.67 Y60.667
X130.381 Y61.206
X130.359 Y61.245
X130.062 Y61.778
X130.034 Y61.829
X129.726 Y62.356
X129.7 Y62.399
X129.383 Y62.921
X129.355 Y62.967
X129.028 Y63.483
X128.998 Y63.529
X128.661 Y64.039
X128.63 Y64.085
X128.283 Y64.589
X128.252 Y64.634
X127.895 Y65.131
X127.859 Y65.179
X127.491 Y65.67
X127.457 Y65.715
X127.079 Y66.199
X127.044 Y66.243
X126.656 Y66.72
X126.617 Y66.767
X126.218 Y67.236
X126.178 Y67.283
X125.768 Y67.745
X125.726 Y67.79
X125.305 Y68.244
X125.26 Y68.292
X124.827 Y68.738
X124.785 Y68.78
X124.342 Y69.218
X124.292 Y69.267
X123.836 Y69.696
X123.787 Y69.741
X123.319 Y70.161
X123.268 Y70.205
X122.788 Y70.616
X122.733 Y70.661
X122.24 Y71.062
X122.185 Y71.106
X121.679 Y71.497
X121.622 Y71.54
X121.103 Y71.921
X121.044 Y71.963
X120.512 Y72.333
X120.449 Y72.376
X119.902 Y72.735
X119.841 Y72.773
X119.281 Y73.121
X119.213 Y73.162
X118.637 Y73.498
X118.573 Y73.534
X117.983 Y73.858
X117.915 Y73.894
X117.31 Y74.205
X117.239 Y74.24
X116.617 Y74.538
X116.548 Y74.57
X115.911 Y74.855
X115.839 Y74.886
X115.185 Y75.157
X115.113 Y75.185
X114.442 Y75.442
X114.37 Y75.469
X113.682 Y75.711
X113.609 Y75.736
X112.903 Y75.963
X112.831 Y75.985
X112.108 Y76.197
X112.035 Y76.218
X111.292 Y76.414
X111.22 Y76.432
X110.459 Y76.613
X110.389 Y76.629
X109.609 Y76.793
X109.538 Y76.807
X108.738 Y76.954
X108.669 Y76.966
X107.849 Y77.096
X107.781 Y77.106
X106.941 Y77.219
X106.875 Y77.227
X106.014 Y77.322
X105.95 Y77.328
X105.069 Y77.406
X105.006 Y77.41
X104.103 Y77.469
X104.042 Y77.473
X103.118 Y77.513
X103.059 Y77.515
X102.114 Y77.537
X102.057 Y77.538
X101.089 Y77.541
X101.035
X100.046 Y77.525
X99.993 Y77.524
X98.983 Y77.489
G3 X97.312 Y76.876 I0.098 J-2.848
G1 X96.843 Y76.505
X96.804 Y76.473
X96.345 Y76.096
X96.306 Y76.063
X95.858 Y75.682
X95.818 Y75.648
X95.381 Y75.261
X95.34 Y75.225
X94.913 Y74.832
X94.874 Y74.796
X94.457 Y74.398
X94.418 Y74.36
X94.011 Y73.957
X93.972 Y73.918
X93.576 Y73.51
X93.538 Y73.47
X93.152 Y73.056
X93.114 Y73.015
X92.738 Y72.596
X92.701 Y72.554
X92.628 Y72.469
G2 X91.825 Y72.41 I-0.432 J0.372 F800
G1 X91.393 Y72.782
X91.325 Y72.84 Z-5.993
X91.259 Y72.897 Z-5.972
X91.197 Y72.951 Z-5.938
X91.139 Y73.001 Z-5.891
X91.088 Y73.045 Z-5.833
X91.044 Y73.083 Z-5.765
X91.008 Y73.114 Z-5.689
X90.982 Y73.136 Z-5.606
X90.966 Y73.15 Z-5.519
X90.961 Y73.154 Z-5.43
Z5 F1000
X91.706 Y74.018
Z-5 F600
Z-11.43
X91.711 Y74.013 Z-11.519 F800
X91.727 Y74 Z-11.606
X91.753 Y73.977 Z-11.689
X91.788 Y73.947 Z-11.765
X91.832 Y73.909 Z-11.833
X91.884 Y73.864 Z-11.891
X91.941 Y73.815 Z-11.938
X92.004 Y73.761 Z-11.972
X92.07 Y73.704 Z-11.993
X92.137 Y73.646 Z-12
X92.569 Y73.273
G2 X92.628 Y72.469 I-0.372 J-0.432
G1 X92.336 Y72.13 F1000
X92.299 Y72.087
X91.944 Y71.658
X91.908 Y71.614
X91.564 Y71.18
X91.529 Y71.136
X91.194 Y70.697
X91.161 Y70.652
X90.836 Y70.208
X90.803 Y70.162
X90.488 Y69.714
X90.456 Y69.668
X90.151 Y69.215
X90.121 Y69.169
X89.826 Y68.712
X89.797 Y68.666
X89.511 Y68.204
X89.483 Y68.158
X89.207 Y67.692
X89.169 Y67.626
X88.645 Y66.684
X88.599 Y66.599
X88.109 Y65.645
X88.07 Y65.566
X87.613 Y64.603
X87.579 Y64.53
X87.151 Y63.56
X87.123 Y63.493
X86.723 Y62.518
X86.697 Y62.453
X86.322 Y61.473
X86.297 Y61.405
X85.949 Y60.417
X85.923 Y60.34
X85.601 Y59.338
X85.581 Y59.273
X85.43 Y58.764
X85.416 Y58.715
X85.274 Y58.199
X85.26 Y58.148
X85.125 Y57.623
X85.112 Y57.567
X84.986 Y57.033
X84.973 Y56.975
X84.857 Y56.429
X84.844 Y56.368
X84.738 Y55.81
X84.727 Y55.747
X84.632 Y55.176
X84.621 Y55.11
X84.538 Y54.525
X84.529 Y54.457
X84.458 Y53.856
X84.45 Y53.787
X84.393 Y53.17
X84.387 Y53.099
X84.344 Y52.466
X84.34 Y52.394
X84.312 Y51.743
X84.31 Y51.67
X84.298 Y51.001
Y50.927
X84.304 Y50.24
X84.306 Y50.165
X84.33 Y49.459
X84.334 Y49.384
X84.378 Y48.661
X84.384 Y48.585
X84.449 Y47.844
X84.457 Y47.766
X84.545 Y47.009
X84.555 Y46.93
X84.666 Y46.159
X84.679 Y46.078
X84.815 Y45.293
X84.831 Y45.212
X84.993 Y44.415
X85.011 Y44.333
X85.2 Y43.527
X85.221 Y43.443
X85.439 Y42.629
X85.463 Y42.544
X85.709 Y41.725
X85.736 Y41.641
X86.011 Y40.818
X86.042 Y40.732
X86.347 Y39.909
X86.38 Y39.824
X86.716 Y39.001
X86.752 Y38.915
X87.118 Y38.096
X87.158 Y38.011
X87.554 Y37.197
X87.597 Y37.112
X88.024 Y36.306
X88.07 Y36.222
X88.526 Y35.425
X88.576 Y35.341
X89.062 Y34.555
X89.114 Y34.474
X89.629 Y33.702
X89.685 Y33.621
X90.228 Y32.864
X90.288 Y32.784
X90.859 Y32.045
X90.922 Y31.966
X91.52 Y31.247
X91.586 Y31.17
X92.21 Y30.472
X92.28 Y30.396
X92.928 Y29.721
X93.002 Y29.647
X93.675 Y28.996
X93.752 Y28.924
X94.447 Y28.301
X94.528 Y28.23
X95.245 Y27.635
X95.33 Y27.567
X96.066 Y27.001
X96.155 Y26.935
X96.91 Y26.4
X97.002 Y26.337
X97.774 Y25.835
X97.87 Y25.775
X98.658 Y25.305
X98.758 Y25.248
X99.56 Y24.813
X99.664 Y24.759
X100.479 Y24.36
X100.585 Y24.311
X101.41 Y23.947
X101.521 Y23.901
X102.356 Y23.575
X102.469 Y23.533
X103.312 Y23.244
X103.428 Y23.207
X104.277 Y22.955
X104.394 Y22.923
X105.247 Y22.71
X105.367 Y22.682
X106.223 Y22.507
X106.344 Y22.485
X107.201 Y22.348
X107.322 Y22.331
X108.179 Y22.231
X108.3 Y22.22
X109.154 Y22.157
X109.274 Y22.15
X110.124 Y22.124
X110.242 Y22.123
X111.086 Y22.131
X111.202 Y22.135
X112.038 Y22.177
X112.152 Y22.186
X112.98 Y22.261
X113.093 Y22.274
X113.91 Y22.381
X114.02 Y22.398
X114.826 Y22.536
X114.935 Y22.557
X115.727 Y22.725
X115.834 Y22.75
X116.612 Y22.946
X116.716 Y22.975
X117.479 Y23.199
X117.584 Y23.232
X118.33 Y23.482
X118.433 Y23.519
X119.161 Y23.795
X119.262 Y23.835
X119.972 Y24.136
X120.072 Y24.181
X120.763 Y24.505
X120.862 Y24.554
X121.534 Y24.901
X121.635 Y24.956
X122.285 Y25.327
X122.38 Y25.384
X123.01 Y25.776
X123.108 Y25.839
X123.716 Y26.253
X123.81 Y26.321
X124.396 Y26.755
X124.491 Y26.828
X125.054 Y27.284
X125.143 Y27.359
X125.684 Y27.835
X125.774 Y27.917
X126.291 Y28.413
X126.376 Y28.498
X126.87 Y29.012
X126.952 Y29.103
X127.422 Y29.637
X127.499 Y29.728
X127.946 Y30.28
X128.023 Y30.379
X128.445 Y30.951
X128.515 Y31.05
X128.913 Y31.64
X128.978 Y31.741
X129.352 Y32.349
X129.412 Y32.452
X129.762 Y33.078
X129.819 Y33.185
X130.144 Y33.829
X130.194 Y33.933
X130.495 Y34.595
X130.541 Y34.703
X130.817 Y35.383
X130.857 Y35.487
X131.109 Y36.184
X131.143 Y36.287
X131.371 Y37.003
X131.403 Y37.108
X131.606 Y37.841
X131.632 Y37.944
X131.81 Y38.695
X131.831 Y38.789
X131.986 Y39.557
G3 X132.041 Y40.192 I-2.794 J0.563
G1 X131.999 Y41.869
X134.091 Y49.924
G3 X134.107 Y51.294 I-2.758 J0.717
G1 X133.963 Y51.905
X133.95 Y51.957
X133.795 Y52.564
X133.785 Y52.603
X133.622 Y53.206
X133.607 Y53.258
X133.433 Y53.856
X133.42 Y53.899
X133.237 Y54.492
X133.222 Y54.54
X133.029 Y55.129
X133.014 Y55.173
X132.812 Y55.756
X132.795 Y55.804
X132.583 Y56.383
X132.567 Y56.427
X132.346 Y57.001
X132.327 Y57.049
X132.096 Y57.619
X132.078 Y57.662
X131.838 Y58.227
X131.817 Y58.274
X131.567 Y58.834
X131.546 Y58.881
X131.286 Y59.436
X131.265 Y59.479
X130.996 Y60.029
X130.974 Y60.072
X130.696 Y60.616
X130.67 Y60.667
X130.381 Y61.206
X130.359 Y61.245
X130.062 Y61.778
X130.034 Y61.829
X129.726 Y62.356
X129.7 Y62.399
X129.383 Y62.921
X129.355 Y62.967
X129.028 Y63.483
X128.998 Y63.529
X128.661 Y64.039
X128.63 Y64.085
X128.283 Y64.589
X128.252 Y64.634
X127.895 Y65.131
X127.859 Y65.179
X127.491 Y65.67
X127.457 Y65.715
X127.079 Y66.199
X127.044 Y66.243
X126.656 Y66.72
X126.617 Y66.767
X126.218 Y67.236
X126.178 Y67.283
X125.768 Y67.745
X125.726 Y67.79
X125.305 Y68.244
X125.26 Y68.292
X124.827 Y68.738
X124.785 Y68.78
X124.342 Y69.218
X124.292 Y69.267
X123.836 Y69.696
X123.787 Y69.741
X123.319 Y70.161
X123.268 Y70.205
X122.788 Y70.616
X122.733 Y70.661
X122.24 Y71.062
X122.185 Y71.106
X121.679 Y71.497
X121.622 Y71.54
X121.103 Y71.921
X121.044 Y71.963
X120.512 Y72.333
X120.449 Y72.376
X119.902 Y72.735
X119.841 Y72.773
X119.281 Y73.121
X119.213 Y73.162
X118.637 Y73.498
X118.573 Y73.534
X117.983 Y73.858
X117.915 Y73.894
X117.31 Y74.205
X117.239 Y74.24
X116.617 Y74.538
X116.548 Y74.57
X115.911 Y74.855
X115.839 Y74.886
X115.185 Y75.157
X115.113 Y75.185
X114.442 Y75.442
X114.37 Y75.469
X113.682 Y75.711
X113.609 Y75.736
X112.903 Y75.963
X112.831 Y75.985
X112.108 Y76.197
X112.035 Y76.218
X111.292 Y76.414
X111.22 Y76.432
X110.459 Y76.613
X110.389 Y76.629
X109.609 Y76.793
X109.538 Y76.807
X108.738 Y76.954
X108.669 Y76.966
X107.849 Y77.096
X107.781 Y77.106
X106.941 Y77.219
X106.875 Y77.227
X106.014 Y77.322
X105.95 Y77.328
X105.069 Y77.406
X105.006 Y77.41
X104.103 Y77.469
X104.042 Y77.473
X103.118 Y77.513
X103.059 Y77.515
X102.114 Y77.537
X102.057 Y77.538
X101.089 Y77.541
X101.035
X100.046 Y77.525
X99.993 Y77.524
X98.983 Y77.489
G3 X97.312 Y76.876 I0.098 J-2.848
G1 X96.843 Y76.505
X96.804 Y76.473
X96.345 Y76.096
X96.306 Y76.063
X95.858 Y75.682
X95.818 Y75.648
X95.381 Y75.261
X95.34 Y75.225
X94.913 Y74.832
X94.874 Y74.796
X94.457 Y74.398
X94.418 Y74.36
X94.011 Y73.957
X93.972 Y73.918
X93.576 Y73.51
X93.538 Y73.47
X93.152 Y73.056
X93.114 Y73.015
X92.738 Y72.596
X92.701 Y72.554
X92.628 Y72.469
G2 X91.825 Y72.41 I-0.432 J0.372 F800
G1 X91.393 Y72.782
X91.325 Y72.84 Z-11.993
X91.259 Y72.897 Z-11.972
X91.197 Y72.951 Z-11.938
X91.139 Y73.001 Z-11.891
X91.088 Y73.045 Z-11.833
X91.044 Y73.083 Z-11.765
X91.008 Y73.114 Z-11.689
X90.982 Y73.136 Z-11.606
X90.966 Y73.15 Z-11.519
X90.961 Y73.154 Z-11.43
Z5 F1000
X91.706 Y74.018
Z-11 F600
Z-15.03
X91.711 Y74.013 Z-15.119 F800
X91.727 Y74 Z-15.206
X91.753 Y73.977 Z-15.289
X91.788 Y73.947 Z-15.365
X91.832 Y73.909 Z-15.433
X91.884 Y73.864 Z-15.491
X91.941 Y73.815 Z-15.538
X92.004 Y73.761 Z-15.572
X92.07 Y73.704 Z-15.593
X92.137 Y73.646 Z-15.6
X92.569 Y73.273
G2 X92.628 Y72.469 I-0.372 J-0.432
G1 X92.336 Y72.13 F1000
X92.299 Y72.087
X91.944 Y71.658
X91.908 Y71.614
X91.564 Y71.18
X91.529 Y71.136
X91.194 Y70.697
X91.161 Y70.652
X90.836 Y70.208
X90.803 Y70.162
X90.488 Y69.714
X90.456 Y69.668
X90.151 Y69.215
X90.121 Y69.169
X89.826 Y68.712
X89.797 Y68.666
X89.511 Y68.204
X89.483 Y68.158
X89.207 Y67.692
X89.169 Y67.626
X88.645 Y66.684
X88.599 Y66.599
X88.155 Y65.734
Z-14.175
X88.109 Y65.645
X88.07 Y65.566
X87.613 Y64.603
X87.579 Y64.53
X87.151 Y63.56
X87.123 Y63.493
X86.723 Y62.518
X86.697 Y62.453
X86.322 Y61.473
X86.297 Y61.405
X85.949 Y60.417
X85.923 Y60.34
X85.601 Y59.338
X85.581 Y59.273
X85.43 Y58.764
X85.416 Y58.715
X85.274 Y58.199
X85.26 Y58.148
X85.125 Y57.623
X85.112 Y57.567
X84.986 Y57.033
X84.973 Y56.975
X84.857 Y56.429
X84.844 Y56.368
X84.738 Y55.81
X84.727 Y55.747
X84.632 Y55.176
X84.621 Y55.11
X84.592 Y54.905
Z-15.6 F600
X84.538 Y54.525 F1000
X84.529 Y54.457
X84.458 Y53.856
X84.45 Y53.787
X84.393 Y53.17
X84.387 Y53.099
X84.344 Y52.466
X84.34 Y52.394
X84.312 Y51.743
X84.31 Y51.67
X84.298 Y51.001
Y50.927
X84.304 Y50.24
X84.306 Y50.165
X84.33 Y49.459
X84.334 Y49.384
X84.378 Y48.661
X84.384 Y48.585
X84.449 Y47.844
X84.457 Y47.766
X84.545 Y47.009
X84.555 Y46.93
X84.666 Y46.159
X84.679 Y46.078
X84.815 Y45.293
X84.831 Y45.212
X84.993 Y44.415
X85.011 Y44.333
X85.2 Y43.527
X85.221 Y43.443
X85.439 Y42.629
X85.463 Y42.544
X85.709 Y41.725
X85.736 Y41.641
X86.011 Y40.818
X86.042 Y40.732
X86.347 Y39.909
X86.38 Y39.824
X86.716 Y39.001
X86.752 Y38.915
X87.118 Y38.096
X87.158 Y38.011
X87.554 Y37.197
X87.597 Y37.112
X88.024 Y36.306
X88.07 Y36.222
X88.526 Y35.425
X88.576 Y35.341
X89.062 Y34.555
X89.114 Y34.474
X89.629 Y33.702
X89.685 Y33.621
X90.228 Y32.864
X90.288 Y32.784
X90.859 Y32.045
X90.922 Y31.966
X91.52 Y31.247
X91.586 Y31.17
X92.21 Y30.472
X92.28 Y30.396
X92.928 Y29.721
X93.002 Y29.647
X93.675 Y28.996
X93.752 Y28.924
X94.447 Y28.301
X94.528 Y28.23
X95.245 Y27.635
X95.33 Y27.567
X96.066 Y27.001
X96.155 Y26.935
X96.91 Y26.4
X97.002 Y26.337
X97.774 Y25.835
X97.87 Y25.775
X98.658 Y25.305
X98.758 Y25.248
X99.56 Y24.813
X99.664 Y24.759
X100.479 Y24.36
X100.585 Y24.311
X101.41 Y23.947
X101.521 Y23.901
X102.356 Y23.575
X102.469 Y23.533
X103.312 Y23.244
X103.428 Y23.207
X104.277 Y22.955
X104.394 Y22.923
X105.247 Y22.71
X105.367 Y22.682
X106.223 Y22.507
X106.344 Y22.485
X106.666 Y22.433
Z-14.175
X107.201 Y22.348
X107.322 Y22.331
X108.179 Y22.231
X108.3 Y22.22
X109.154 Y22.157
X109.274 Y22.15
X110.124 Y22.124
X110.242 Y22.123
X111.086 Y22.131
X111.202 Y22.135
X112.038 Y22.177
X112.152 Y22.186
X112.98 Y22.261
X113.093 Y22.274
X113.91 Y22.381
X114.02 Y22.398
X114.826 Y22.536
X114.935 Y22.557
X115.727 Y22.725
X115.834 Y22.75
X116.612 Y22.946
X116.716 Y22.975
X117.479 Y23.199
X117.584 Y23.232
X118.027 Y23.38
Z-15.6 F600
X118.33 Y23.482 F1000
X118.433 Y23.519
X119.161 Y23.795
X119.262 Y23.835
X119.972 Y24.136
X120.072 Y24.181
X120.763 Y24.505
X120.862 Y24.554
X121.534 Y24.901
X121.635 Y24.956
X122.285 Y25.327
X122.38 Y25.384
X123.01 Y25.776
X123.108 Y25.839
X123.716 Y26.253
X123.81 Y26.321
X124.396 Y26.755
X124.491 Y26.828
X125.054 Y27.284
X125.143 Y27.359
X125.684 Y27.835
X125.774 Y27.917
X126.291 Y28.413
X126.376 Y28.498
X126.87 Y29.012
X126.952 Y29.103
X127.422 Y29.637
X127.499 Y29.728
X127.946 Y30.28
X128.023 Y30.379
X128.445 Y30.951
X128.515 Y31.05
X128.913 Y31.64
X128.978 Y31.741
X129.352 Y32.349
X129.412 Y32.452
X129.762 Y33.078
X129.819 Y33.185
X130.144 Y33.829
X130.194 Y33.933
X130.495 Y34.595
X130.541 Y34.703
X130.817 Y35.383
X130.857 Y35.487
X131.109 Y36.184
X131.143 Y36.287
X131.371 Y37.003
X131.403 Y37.108
X131.606 Y37.841
X131.632 Y37.944
X131.81 Y38.695
X131.831 Y38.789
X131.986 Y39.557
G3 X132.041 Y40.192 I-2.794 J0.563
G1 X131.999 Y41.869
X134.091 Y49.924
G3 X134.107 Y51.294 I-2.758 J0.717
G1 X133.963 Y51.905
X133.95 Y51.957
X133.795 Y52.564
X133.785 Y52.603
X133.622 Y53.206
X133.607 Y53.258
X133.433 Y53.856
X133.42 Y53.899
X133.237 Y54.492
X133.222 Y54.54
X133.029 Y55.129
X133.014 Y55.173
X132.812 Y55.756
X132.795 Y55.804
X132.583 Y56.383
X132.567 Y56.427
X132.346 Y57.001
X132.327 Y57.049
X132.096 Y57.619
X132.078 Y57.662
X131.838 Y58.227
X131.817 Y58.274
X131.567 Y58.834
X131.546 Y58.881
X131.286 Y59.436
X131.265 Y59.479
X131.062 Y59.893
Z-14.175
X130.996 Y60.029
X130.974 Y60.072
X130.696 Y60.616
X130.67 Y60.667
X130.381 Y61.206
X130.359 Y61.245
X130.062 Y61.778
X130.034 Y61.829
X129.726 Y62.356
X129.7 Y62.399
X129.383 Y62.921
X129.355 Y62.967
X129.028 Y63.483
X128.998 Y63.529
X128.661 Y64.039
X128.63 Y64.085
X128.283 Y64.589
X128.252 Y64.634
X127.895 Y65.131
X127.859 Y65.179
X127.491 Y65.67
X127.457 Y65.715
X127.079 Y66.199
X127.044 Y66.243
X126.656 Y66.72
X126.617 Y66.767
X126.218 Y67.236
X126.178 Y67.283
X125.768 Y67.745
X125.726 Y67.79
X125.305 Y68.244
X125.26 Y68.292
X124.827 Y68.738
X124.785 Y68.78
X124.41 Y69.151
Z-15.6 F600
X124.342 Y69.218 F1000
X124.292 Y69.267
X123.836 Y69.696
X123.787 Y69.741
X123.319 Y70.161
X123.268 Y70.205
X122.788 Y70.616
X122.733 Y70.661
X122.24 Y71.062
X122.185 Y71.106
X121.679 Y71.497
X121.622 Y71.54
X121.103 Y71.921
X121.044 Y71.963
X120.512 Y72.333
X120.449 Y72.376
X119.902 Y72.735
X119.841 Y72.773
X119.281 Y73.121
X119.213 Y73.162
X118.637 Y73.498
X118.573 Y73.534
X117.983 Y73.858
X117.915 Y73.894
X117.31 Y74.205
X117.239 Y74.24
X116.617 Y74.538
X116.548 Y74.57
X115.911 Y74.855
X115.839 Y74.886
X115.185 Y75.157
X115.113 Y75.185
X114.442 Y75.442
X114.37 Y75.469
X113.682 Y75.711
X113.609 Y75.736
X112.903 Y75.963
X112.831 Y75.985
X112.108 Y76.197
X112.035 Y76.218
X111.292 Y76.414
X111.22 Y76.432
X110.459 Y76.613
X110.389 Y76.629
X109.609 Y76.793
X109.538 Y76.807
X108.738 Y76.954
X108.669 Y76.966
X107.849 Y77.096
X107.781 Y77.106
X106.941 Y77.219
X106.875 Y77.227
X106.014 Y77.322
X105.95 Y77.328
X105.069 Y77.406
X105.006 Y77.41
X104.103 Y77.469
X104.042 Y77.473
X103.118 Y77.513
X103.059 Y77.515
X102.114 Y77.537
X102.057 Y77.538
X101.089 Y77.541
X101.035
X100.046 Y77.525
X99.993 Y77.524
X98.983 Y77.489
G3 X97.312 Y76.876 I0.098 J-2.848
G1 X96.843 Y76.505
X96.804 Y76.473
X96.345 Y76.096
X96.306 Y76.063
X95.858 Y75.682
X95.818 Y75.648
X95.381 Y75.261
X95.34 Y75.225
X94.913 Y74.832
X94.874 Y74.796
X94.457 Y74.398
X94.418 Y74.36
X94.011 Y73.957
X93.972 Y73.918
X93.576 Y73.51
X93.538 Y73.47
X93.152 Y73.056
X93.114 Y73.015
X92.738 Y72.596
X92.701 Y72.554
X92.628 Y72.469
G2 X91.825 Y72.41 I-0.432 J0.372 F800
G1 X91.393 Y72.782
X91.325 Y72.84 Z-15.593
X91.259 Y72.897 Z-15.572
X91.197 Y72.951 Z-15.538
X91.139 Y73.001 Z-15.491
X91.088 Y73.045 Z-15.433
X91.044 Y73.083 Z-15.365
X91.008 Y73.114 Z-15.289
X90.982 Y73.136 Z-15.206
X90.966 Y73.15 Z-15.119
X90.961 Y73.154 Z-15.03
Z5 F1000
X154.087 Y56.441
Z1 F600
Z-5.43
X154.085 Y56.447 Z-5.519 F800
X154.078 Y56.467 Z-5.606
X154.066 Y56.499 Z-5.689
X154.05 Y56.543 Z-5.765
X154.03 Y56.598 Z-5.833
X154.007 Y56.662 Z-5.891
X153.981 Y56.734 Z-5.938
X153.953 Y56.811 Z-5.972
X153.924 Y56.893 Z-5.993
X153.893 Y56.977 Z-6
X153.7 Y57.513
G2 X154.042 Y58.243 I0.536 J0.194
G3 X160.817 Y71.325 I-3.686 J10.204 F1000
G1 X160.537 Y72.351
X160.268 Y73.367
X160.006 Y74.375
X159.754 Y75.376
X159.51 Y76.37
X159.275 Y77.358
X159.048 Y78.34
X158.83 Y79.313
X158.621 Y80.282
X158.42 Y81.24
X158.044 Y83.152
X157.702 Y85.04
X157.396 Y86.908
X157.125 Y88.761
X156.891 Y90.602
X156.694 Y92.434
X156.533 Y94.268
X156.469 Y95.172
X156.415 Y96.084
X156.37 Y96.998
X156.337 Y97.912
X156.314 Y98.828
X156.301 Y99.746
X156.3 Y100.668
X156.31 Y101.592
X156.333 Y102.519
X156.366 Y103.453
X156.413 Y104.391
X156.473 Y105.336
X156.545 Y106.286
X156.632 Y107.243
X156.732 Y108.209
X156.846 Y109.183
X156.975 Y110.166
X157.12 Y111.16
X157.279 Y112.162
X157.455 Y113.176
X157.647 Y114.202
X157.856 Y115.238
X158.083 Y116.29
X158.327 Y117.354
X158.591 Y118.434
X158.871 Y119.526
X159.172 Y120.633
X159.494 Y121.757
X159.834 Y122.898
X160.196 Y124.054
X160.578 Y125.228
X160.983 Y126.42
X161.408 Y127.629
X161.857 Y128.857
X162.327 Y130.103
X162.821 Y131.369
X163.337 Y132.654
X163.877 Y133.958
X164.44 Y135.282
X164.483 Y135.38
X169.652 Y136.765
G3 X171.206 Y137.823 I-0.738 J2.753
G1 X171.428 Y138.123
X171.455 Y138.16
X171.686 Y138.483
X171.701 Y138.504
X171.943 Y138.849
X171.964 Y138.879
X172.216 Y139.248
X172.232 Y139.273
X172.493 Y139.664
X172.512 Y139.692
X172.782 Y140.107
X172.797 Y140.13
X173.076 Y140.568
X173.098 Y140.603
X173.383 Y141.065
X173.401 Y141.095
X173.692 Y141.58
X173.71 Y141.61
X174.007 Y142.119
X174.027 Y142.155
X174.327 Y142.687
X174.347 Y142.722
X174.651 Y143.279
X174.673 Y143.321
X174.977 Y143.901
X174.998 Y143.941
X175.303 Y144.546
X175.324 Y144.589
X175.628 Y145.218
X175.652 Y145.27
X175.952 Y145.924
X175.972 Y145.967
X176.269 Y146.644
X176.293 Y146.701
X176.583 Y147.403
X176.604 Y147.456
X176.887 Y148.182
X176.91 Y148.242
X177.183 Y148.992
X177.203 Y149.05
X177.466 Y149.824
X177.486 Y149.885
X177.737 Y150.682
X177.758 Y150.75
X177.994 Y151.57
X178.012 Y151.634
X178.233 Y152.476
X178.25 Y152.546
X178.454 Y153.411
X178.47 Y153.483
X178.655 Y154.37
X178.67 Y154.445
X178.834 Y155.352
X178.846 Y155.425
X178.989 Y156.353
X178.999 Y156.429
X179.119 Y157.376
X179.129 Y157.458
X179.223 Y158.424
X179.229 Y158.501
X179.298 Y159.485
X179.303 Y159.567
X179.344 Y160.568
X179.346 Y160.649
X179.359 Y161.665
Y161.748
X179.342 Y162.778
X179.339 Y162.859
X179.292 Y163.901
X179.287 Y163.986
X179.208 Y165.039
X179.2 Y165.125
X179.088 Y166.187
X179.078 Y166.269
X178.934 Y167.337
X178.922 Y167.422
X178.744 Y168.495
X178.728 Y168.58
X178.516 Y169.655
X178.498 Y169.74
X178.252 Y170.814
X178.231 Y170.898
X177.951 Y171.97
X177.927 Y172.058
X177.612 Y173.124
X177.586 Y173.207
X177.237 Y174.267
X177.206 Y174.356
X176.822 Y175.405
X176.79 Y175.488
X176.373 Y176.525
X176.337 Y176.611
X175.886 Y177.635
X175.847 Y177.72
X175.364 Y178.726
X175.322 Y178.81
X174.806 Y179.799
X174.761 Y179.881
X174.215 Y180.849
X174.166 Y180.934
X173.588 Y181.881
X173.536 Y181.962
X172.929 Y182.885
X172.874 Y182.966
X172.238 Y183.864
X172.179 Y183.944
X171.515 Y184.816
X171.454 Y184.893
X170.764 Y185.737
X170.7 Y185.813
X169.984 Y186.629
X169.917 Y186.703
X169.177 Y187.489
X169.108 Y187.56
X168.345 Y188.316
X168.273 Y188.385
X167.488 Y189.11
X167.412 Y189.177
X166.606 Y189.87
X166.528 Y189.934
X165.703 Y190.594
X165.627 Y190.654
X164.785 Y191.282
X164.704 Y191.34
X163.845 Y191.935
X163.76 Y191.992
X162.886 Y192.552
X162.804 Y192.602
X161.917 Y193.129
X161.829 Y193.179
X160.93 Y193.671
X160.843 Y193.717
X159.933 Y194.175
X159.847 Y194.216
X158.929 Y194.64
X158.838 Y194.681
X157.912 Y195.07
X157.819 Y195.107
X156.886 Y195.461
X156.797 Y195.493
X155.861 Y195.813
X155.766 Y195.843
X154.826 Y196.128
X154.733 Y196.155
X153.791 Y196.406
X153.697 Y196.429
X152.755 Y196.646
X152.662 Y196.666
X151.721 Y196.85
X151.624 Y196.867
X150.686 Y197.017
X150.593 Y197.031
X149.658 Y197.149
X149.561 Y197.159
X148.632 Y197.244
X148.535 Y197.251
X147.611 Y197.304
X147.513 Y197.308
X146.598 Y197.329
X146.502 Y197.33
X145.594 Y197.32
X145.498 Y197.317
X144.601 Y197.277
X144.504 Y197.271
X143.617 Y197.201
X143.517 Y197.192
X142.642 Y197.092
X142.545 Y197.079
X141.682 Y196.95
X141.588 Y196.934
X140.739 Y196.778
X140.638 Y196.758
X139.803 Y196.573
X139.709 Y196.55
X138.889 Y196.339
X138.795 Y196.313
X137.989 Y196.076
X137.893 Y196.046
X137.103 Y195.783
X137.009 Y195.75
X136.235 Y195.462
X136.14 Y195.425
X135.383 Y195.112
X135.298 Y195.075
X134.557 Y194.74
X134.464 Y194.696
X133.741 Y194.337
X133.656 Y194.293
X132.949 Y193.912
X132.863 Y193.864
X132.175 Y193.462
X132.092 Y193.411
X131.422 Y192.988
X131.339 Y192.934
X130.687 Y192.49
X130.611 Y192.436
X129.978 Y191.974
X129.899 Y191.914
X129.286 Y191.433
X129.212 Y191.373
X128.618 Y190.874
X128.542 Y190.808
X127.969 Y190.291
X127.902 Y190.229
X127.349 Y189.697
X127.278 Y189.626
X126.746 Y189.077
X126.679 Y189.006
X126.169 Y188.442
X126.106 Y188.369
X125.617 Y187.79
X125.555 Y187.714
X125.089 Y187.122
X125.03 Y187.045
X124.586 Y186.44
X124.527 Y186.357
X124.106 Y185.738
X124.052 Y185.654
X123.655 Y185.024
X123.604 Y184.941
X123.23 Y184.3
X123.18 Y184.21
X122.83 Y183.557
X122.784 Y183.467
X122.459 Y182.805
X122.414 Y182.709
X122.114 Y182.036
X122.074 Y181.943
X121.799 Y181.262
X121.761 Y181.161
X121.512 Y180.47
X121.479 Y180.375
X121.255 Y179.677
X121.225 Y179.575
X121.027 Y178.868
X120.999 Y178.763
X120.828 Y178.049
X120.806 Y177.947
X120.661 Y177.226
X120.641 Y177.116
X120.524 Y176.388
X120.51 Y176.286
X120.419 Y175.551
X120.408 Y175.447
X120.344 Y174.707
X120.336 Y174.598
X120.3 Y173.851
X120.297 Y173.744
X120.289 Y172.991
X120.29 Y172.89
X120.309 Y172.132
X120.313 Y172.028
X120.36 Y171.265
X120.368 Y171.167
X120.442 Y170.398
G3 X120.526 Y169.933 I2.837 J0.273
G1 X121.185 Y167.475
X121.203 Y157.51
G3 X121.633 Y156.01 I2.85 J0.005
G1 X125.94 Y149.087
X125.964 Y148.677
Y148.67
X126.033 Y147.549
X126.034 Y147.545
X126.104 Y146.435
Y146.43
X126.175 Y145.332
Y145.328
X126.247 Y144.241
X126.248 Y144.236
X126.321 Y143.161
Y143.156
X126.395 Y142.092
Y142.09
X126.469 Y141.037
X126.47 Y141.029
X126.546 Y139.988
Y139.984
X126.623 Y138.954
Y138.948
X126.701 Y137.929
X126.702 Y137.924
X126.781 Y136.916
Y136.911
X126.861 Y135.914
Y135.912
X126.941 Y134.926
X126.942 Y134.917
X127.024 Y133.942
X127.025 Y133.937
X127.108 Y132.973
Y132.97
X127.191 Y132.016
X127.192 Y132.007
X127.277 Y131.065
Y131.062
X127.362 Y130.129
X127.363 Y130.12
X127.45 Y129.198
Y129.195
X127.537 Y128.284
Y128.278
X127.625 Y127.376
X127.626 Y127.37
X127.715 Y126.479
X127.716 Y126.472
X127.806 Y125.591
X127.807 Y125.582
X127.99 Y123.849
X127.991 Y123.837
X128.177 Y122.143
X128.178 Y122.131
X128.367 Y120.474
X128.369 Y120.461
X128.561 Y118.842
X128.562 Y118.83
X128.757 Y117.246
X128.759 Y117.231
X128.958 Y115.682
X128.96 Y115.67
X129.161 Y114.154
X129.163 Y114.14
X129.367 Y112.658
X129.369 Y112.644
X129.576 Y111.193
X129.577 Y111.181
X129.786 Y109.761
X129.789 Y109.747
X130.001 Y108.356
X130.003 Y108.342
X130.217 Y106.981
X130.219 Y106.967
X130.436 Y105.632
X130.438 Y105.618
X130.657 Y104.311
X130.659 Y104.3
X130.879 Y103.018
X130.882 Y103.003
X131.105 Y101.745
X131.107 Y101.731
X131.332 Y100.497
X131.334 Y100.485
X131.56 Y99.274
X131.563 Y99.261
X131.791 Y98.071
X131.794 Y98.058
X132.024 Y96.889
X132.026 Y96.877
X132.257 Y95.728
X132.26 Y95.715
X132.493 Y94.585
X132.495 Y94.573
X132.729 Y93.462
X132.732 Y93.45
X132.967 Y92.356
X132.969 Y92.345
X133.205 Y91.267
X133.208 Y91.253
X133.446 Y90.191
X133.448 Y90.182
X133.686 Y89.135
X133.688 Y89.124
X133.927 Y88.091
X133.93 Y88.08
X134.17 Y87.06
X134.172 Y87.05
X134.413 Y86.043
X134.415 Y86.035
X134.656 Y85.04
X134.659 Y85.03
X134.901 Y84.047
X134.903 Y84.037
X135.146 Y83.064
X135.148 Y83.057
X135.391 Y82.095
X135.393 Y82.085
X135.879 Y80.189
X135.883 Y80.174
X136.371 Y78.313
X136.375 Y78.3
X136.864 Y76.47
X136.866 Y76.461
X137.354 Y74.659
X137.357 Y74.648
X137.846 Y72.871
X137.848 Y72.863
X138.336 Y71.11
X138.338 Y71.103
X138.825 Y69.371
X138.827 Y69.364
X139.313 Y67.652
X139.315 Y67.646
X139.8 Y65.953
X139.802 Y65.948
G3 X140.095 Y64.935 I732.39 J211.338
G1 X140.152 Y64.76
G3 X154.042 Y58.243 I10.204 J3.686
G2 X154.772 Y57.9 I0.194 J-0.536 F800
G1 X154.966 Y57.364
X154.996 Y57.28 Z-5.993
X155.026 Y57.199 Z-5.972
X155.054 Y57.121 Z-5.938
X155.08 Y57.049 Z-5.891
X155.103 Y56.985 Z-5.833
X155.122 Y56.931 Z-5.765
X155.138 Y56.887 Z-5.689
X155.15 Y56.854 Z-5.606
X155.157 Y56.835 Z-5.519
X155.159 Y56.828 Z-5.43
Z5 F1000
X154.087 Y56.441
Z-5 F600
Z-11.43
X154.085 Y56.447 Z-11.519 F800
X154.078 Y56.467 Z-11.606
X154.066 Y56.499 Z-11.689
X154.05 Y56.543 Z-11.765
X154.03 Y56.598 Z-11.833
X154.007 Y56.662 Z-11.891
X153.981 Y56.734 Z-11.938
X153.953 Y56.811 Z-11.972
X153.924 Y56.893 Z-11.993
X153.893 Y56.977 Z-12
X153.7 Y57.513
G2 X154.042 Y58.243 I0.536 J0.194
G3 X160.817 Y71.325 I-3.686 J10.204 F1000
G1 X160.537 Y72.351
X160.268 Y73.367
X160.006 Y74.375
X159.754 Y75.376
X159.51 Y76.37
X159.275 Y77.358
X159.048 Y78.34
X158.83 Y79.313
X158.621 Y80.282
X158.42 Y81.24
X158.044 Y83.152
X157.702 Y85.04
X157.396 Y86.908
X157.125 Y88.761
X156.891 Y90.602
X156.694 Y92.434
X156.533 Y94.268
X156.469 Y95.172
X156.415 Y96.084
X156.37 Y96.998
X156.337 Y97.912
X156.314 Y98.828
X156.301 Y99.746
X156.3 Y100.668
X156.31 Y101.592
X156.333 Y102.519
X156.366 Y103.453
X156.413 Y104.391
X156.473 Y105.336
X156.545 Y106.286
X156.632 Y107.243
X156.732 Y108.209
X156.846 Y109.183
X156.975 Y110.166
X157.12 Y111.16
X157.279 Y112.162
X157.455 Y113.176
X157.647 Y114.202
X157.856 Y115.238
X158.083 Y116.29
X158.327 Y117.354
X158.591 Y118.434
X158.871 Y119.526
X159.172 Y120.633
X159.494 Y121.757
X159.834 Y122.898
X160.196 Y124.054
X160.578 Y125.228
X160.983 Y126.42
X161.408 Y127.629
X161.857 Y128.857
X162.327 Y130.103
X162.821 Y131.369
X163.337 Y132.654
X163.877 Y133.958
X164.44 Y135.282
X164.483 Y135.38
X169.652 Y136.765
G3 X171.206 Y137.823 I-0.738 J2.753
G1 X171.428 Y138.123
X171.455 Y138.16
X171.686 Y138.483
X171.701 Y138.504
X171.943 Y138.849
X171.964 Y138.879
X172.216 Y139.248
X172.232 Y139.273
X172.493 Y139.664
X172.512 Y139.692
X172.782 Y140.107
X172.797 Y140.13
X173.076 Y140.568
X173.098 Y140.603
X173.383 Y141.065
X173.401 Y141.095
X173.692 Y141.58
X173.71 Y141.61
X174.007 Y142.119
X174.027 Y142.155
X174.327 Y142.687
X174.347 Y142.722
X174.651 Y143.279
X174.673 Y143.321
X174.977 Y143.901
X174.998 Y143.941
X175.303 Y144.546
X175.324 Y144.589
X175.628 Y145.218
X175.652 Y145.27
X175.952 Y145.924
X175.972 Y145.967
X176.269 Y146.644
X176.293 Y146.701
X176.583 Y147.403
X176.604 Y147.456
X176.887 Y148.182
X176.91 Y148.242
X177.183 Y148.992
X177.203 Y149.05
X177.466 Y149.824
X177.486 Y149.885
X177.737 Y150.682
X177.758 Y150.75
X177.994 Y151.57
X178.012 Y151.634
X178.233 Y152.476
X178.25 Y152.546
X178.454 Y153.411
X178.47 Y153.483
X178.655 Y154.37
X178.67 Y154.445
X178.834 Y155.352
X178.846 Y155.425
X178.989 Y156.353
X178.999 Y156.429
X179.119 Y157.376
X179.129 Y157.458
X179.223 Y158.424
X179.229 Y158.501
X179.298 Y159.485
X179.303 Y159.567
X179.344 Y160.568
X179.346 Y160.649
X179.359 Y161.665
Y161.748
X179.342 Y162.778
X179.339 Y162.859
X179.292 Y163.901
X179.287 Y163.986
X179.208 Y165.039
X179.2 Y165.125
X179.088 Y166.187
X179.078 Y166.269
X178.934 Y167.337
X178.922 Y167.422
X178.744 Y168.495
X178.728 Y168.58
X178.516 Y169.655
X178.498 Y169.74
X178.252 Y170.814
X178.231 Y170.898
X177.951 Y171.97
X177.927 Y172.058
X177.612 Y173.124
X177.586 Y173.207
X177.237 Y174.267
X177.206 Y174.356
X176.822 Y175.405
X176.79 Y175.488
X176.373 Y176.525
X176.337 Y176.611
X175.886 Y177.635
X175.847 Y177.72
X175.364 Y178.726
X175.322 Y178.81
X174.806 Y179.799
X174.761 Y179.881
X174.215 Y180.849
X174.166 Y180.934
X173.588 Y181.881
X173.536 Y181.962
X172.929 Y182.885
X172.874 Y182.966
X172.238 Y183.864
X172.179 Y183.944
X171.515 Y184.816
X171.454 Y184.893
X170.764 Y185.737
X170.7 Y185.813
X169.984 Y186.629
X169.917 Y186.703
X169.177 Y187.489
X169.108 Y187.56
X168.345 Y188.316
X168.273 Y188.385
X167.488 Y189.11
X167.412 Y189.177
X166.606 Y189.87
X166.528 Y189.934
X165.703 Y190.594
X165.627 Y190.654
X164.785 Y191.282
X164.704 Y191.34
X163.845 Y191.935
X163.76 Y191.992
X162.886 Y192.552
X162.804 Y192.602
X161.917 Y193.129
X161.829 Y193.179
X160.93 Y193.671
X160.843 Y193.717
X159.933 Y194.175
X159.847 Y194.216
X158.929 Y194.64
X158.838 Y194.681
X157.912 Y195.07
X157.819 Y195.107
X156.886 Y195.461
X156.797 Y195.493
X155.861 Y195.813
X155.766 Y195.843
X154.826 Y196.128
X154.733 Y196.155
X153.791 Y196.406
X153.697 Y196.429
X152.755 Y196.646
X152.662 Y196.666
X151.721 Y196.85
X151.624 Y196.867
X150.686 Y197.017
X150.593 Y197.031
X149.658 Y197.149
X149.561 Y197.159
X148.632 Y197.244
X148.535 Y197.251
X147.611 Y197.304
X147.513 Y197.308
X146.598 Y197.329
X146.502 Y197.33
X145.594 Y197.32
X145.498 Y197.317
X144.601 Y197.277
X144.504 Y197.271
X143.617 Y197.201
X143.517 Y197.192
X142.642 Y197.092
X142.545 Y197.079
X141.682 Y196.95
X141.588 Y196.934
X140.739 Y196.778
X140.638 Y196.758
X139.803 Y196.573
X139.709 Y196.55
X138.889 Y196.339
X138.795 Y196.313
X137.989 Y196.076
X137.893 Y196.046
X137.103 Y195.783
X137.009 Y195.75
X136.235 Y195.462
X136.14 Y195.425
X135.383 Y195.112
X135.298 Y195.075
X134.557 Y194.74
X134.464 Y194.696
X133.741 Y194.337
X133.656 Y194.293
X132.949 Y193.912
X132.863 Y193.864
X132.175 Y193.462
X132.092 Y193.411
X131.422 Y192.988
X131.339 Y192.934
X130.687 Y192.49
X130.611 Y192.436
X129.978 Y191.974
X129.899 Y191.914
X129.286 Y191.433
X129.212 Y191.373
X128.618 Y190.874
X128.542 Y190.808
X127.969 Y190.291
X127.902 Y190.229
X127.349 Y189.697
X127.278 Y189.626
X126.746 Y189.077
X126.679 Y189.006
X126.169 Y188.442
X126.106 Y188.369
X125.617 Y187.79
X125.555 Y187.714
X125.089 Y187.122
X125.03 Y187.045
X124.586 Y186.44
X124.527 Y186.357
X124.106 Y185.738
X124.052 Y185.654
X123.655 Y185.024
X123.604 Y184.941
X123.23 Y184.3
X123.18 Y184.21
X122.83 Y183.557
X122.784 Y183.467
X122.459 Y182.805
X122.414 Y182.709
X122.114 Y182.036
X122.074 Y181.943
X121.799 Y181.262
X121.761 Y181.161
X121.512 Y180.47
X121.479 Y180.375
X121.255 Y179.677
X121.225 Y179.575
X121.027 Y178.868
X120.999 Y178.763
X120.828 Y178.049
X120.806 Y177.947
X120.661 Y177.226
X120.641 Y177.116
X120.524 Y176.388
X120.51 Y176.286
X120.419 Y175.551
X120.408 Y175.447
X120.344 Y174.707
X120.336 Y174.598
X120.3 Y173.851
X120.297 Y173.744
X120.289 Y172.991
X120.29 Y172.89
X120.309 Y172.132
X120.313 Y172.028
X120.36 Y171.265
X120.368 Y171.167
X120.442 Y170.398
G3 X120.526 Y169.933 I2.837 J0.273
G1 X121.185 Y167.475
X121.203 Y157.51
G3 X121.633 Y156.01 I2.85 J0.005
G1 X125.94 Y149.087
X125.964 Y148.677
Y148.67
X126.033 Y147.549
X126.034 Y147.545
X126.104 Y146.435
Y146.43
X126.175 Y145.332
Y145.328
X126.247 Y144.241
X126.248 Y144.236
X126.321 Y143.161
Y143.156
X126.395 Y142.092
Y142.09
X126.469 Y141.037
X126.47 Y141.029
X126.546 Y139.988
Y139.984
X126.623 Y138.954
Y138.948
X126.701 Y137.929
X126.702 Y137.924
X126.781 Y136.916
Y136.911
X126.861 Y135.914
Y135.912
X126.941 Y134.926
X126.942 Y134.917
X127.024 Y133.942
X127.025 Y133.937
X127.108 Y132.973
Y132.97
X127.191 Y132.016
X127.192 Y132.007
X127.277 Y131.065
Y131.062
X127.362 Y130.129
X127.363 Y130.12
X127.45 Y129.198
Y129.195
X127.537 Y128.284
Y128.278
X127.625 Y127.376
X127.626 Y127.37
X127.715 Y126.479
X127.716 Y126.472
X127.806 Y125.591
X127.807 Y125.582
X127.99 Y123.849
X127.991 Y123.837
X128.177 Y122.143
X128.178 Y122.131
X128.367 Y120.474
X128.369 Y120.461
X128.561 Y118.842
X128.562 Y118.83
X128.757 Y117.246
X128.759 Y117.231
X128.958 Y115.682
X128.96 Y115.67
X129.161 Y114.154
X129.163 Y114.14
X129.367 Y112.658
X129.369 Y112.644
X129.576 Y111.193
X129.577 Y111.181
X129.786 Y109.761
X129.789 Y109.747
X130.001 Y108.356
X130.003 Y108.342
X130.217 Y106.981
X130.219 Y106.967
X130.436 Y105.632
X130.438 Y105.618
X130.657 Y104.311
X130.659 Y104.3
X130.879 Y103.018
X130.882 Y103.003
X131.105 Y101.745
X131.107 Y101.731
X131.332 Y100.497
X131.334 Y100.485
X131.56 Y99.274
X131.563 Y99.261
X131.791 Y98.071
X131.794 Y98.058
X132.024 Y96.889
X132.026 Y96.877
X132.257 Y95.728
X132.26 Y95.715
X132.493 Y94.585
X132.495 Y94.573
X132.729 Y93.462
X132.732 Y93.45
X132.967 Y92.356
X132.969 Y92.345
X133.205 Y91.267
X133.208 Y91.253
X133.446 Y90.191
X133.448 Y90.182
X133.686 Y89.135
X133.688 Y89.124
X133.927 Y88.091
X133.93 Y88.08
X134.17 Y87.06
X134.172 Y87.05
X134.413 Y86.043
X134.415 Y86.035
X134.656 Y85.04
X134.659 Y85.03
X134.901 Y84.047
X134.903 Y84.037
X135.146 Y83.064
X135.148 Y83.057
X135.391 Y82.095
X135.393 Y82.085
X135.879 Y80.189
X135.883 Y80.174
X136.371 Y78.313
X136.375 Y78.3
X136.864 Y76.47
X136.866 Y76.461
X137.354 Y74.659
X137.357 Y74.648
X137.846 Y72.871
X137.848 Y72.863
X138.336 Y71.11
X138.338 Y71.103
X138.825 Y69.371
X138.827 Y69.364
X139.313 Y67.652
X139.315 Y67.646
X139.8 Y65.953
X139.802 Y65.948
G3 X140.095 Y64.935 I732.39 J211.338
G1 X140.152 Y64.76
G3 X154.042 Y58.243 I10.204 J3.686
G2 X154.772 Y57.9 I0.194 J-0.536 F800
G1 X154.966 Y57.364
X154.996 Y57.28 Z-11.993
X155.026 Y57.199 Z-11.972
X155.054 Y57.121 Z-11.938
X155.08 Y57.049 Z-11.891
X155.103 Y56.985 Z-11.833
X155.122 Y56.931 Z-11.765
X155.138 Y56.887 Z-11.689
X155.15 Y56.854 Z-11.606
X155.157 Y56.835 Z-11.519
X155.159 Y56.828 Z-11.43
Z5 F1000
X154.087 Y56.441
Z-11 F600
Z-15.03
X154.085 Y56.447 Z-15.119 F800
X154.078 Y56.467 Z-15.206
X154.066 Y56.499 Z-15.289
X154.05 Y56.543 Z-15.365
X154.03 Y56.598 Z-15.433
X154.007 Y56.662 Z-15.491
X153.981 Y56.734 Z-15.538
X153.953 Y56.811 Z-15.572
X153.924 Y56.893 Z-15.593
X153.893 Y56.977 Z-15.6
X153.7 Y57.513
G2 X154.042 Y58.243 I0.536 J0.194
G3 X160.817 Y71.325 I-3.686 J10.204 F1000
G1 X160.537 Y72.351
X160.268 Y73.367
X160.006 Y74.375
X159.754 Y75.376
X159.51 Y76.37
X159.275 Y77.358
X159.048 Y78.34
X158.83 Y79.313
X158.621 Y80.282
X158.42 Y81.24
X158.044 Y83.152
X157.702 Y85.04
X157.396 Y86.908
X157.125 Y88.761
X156.891 Y90.602
X156.776 Y91.672
Z-14.175
X156.694 Y92.434
X156.533 Y94.268
X156.469 Y95.172
X156.415 Y96.084
X156.37 Y96.998
X156.337 Y97.912
X156.314 Y98.828
X156.301 Y99.746
X156.3 Y100.668
X156.31 Y101.592
X156.333 Y102.519
X156.352 Y103.065
Z-15.6 F600
X156.366 Y103.453 F1000
X156.413 Y104.391
X156.473 Y105.336
X156.545 Y106.286
X156.632 Y107.243
X156.732 Y108.209
X156.846 Y109.183
X156.975 Y110.166
X157.12 Y111.16
X157.279 Y112.162
X157.455 Y113.176
X157.647 Y114.202
X157.856 Y115.238
X158.083 Y116.29
X158.327 Y117.354
X158.591 Y118.434
X158.871 Y119.526
X159.172 Y120.633
X159.494 Y121.757
X159.834 Y122.898
X160.196 Y124.054
X160.578 Y125.228
X160.983 Y126.42
X161.408 Y127.629
X161.857 Y128.857
X162.327 Y130.103
X162.821 Y131.369
X163.337 Y132.654
X163.877 Y133.958
X164.44 Y135.282
X164.483 Y135.38
X169.652 Y136.765
G3 X171.206 Y137.823 I-0.738 J2.753
G1 X171.428 Y138.123
X171.455 Y138.16
X171.686 Y138.483
X171.701 Y138.504
X171.943 Y138.849
X171.964 Y138.879
X172.216 Y139.248
X172.232 Y139.273
X172.493 Y139.664
X172.512 Y139.692
X172.782 Y140.107
X172.797 Y140.13
X173.076 Y140.568
X173.098 Y140.603
X173.383 Y141.065
X173.401 Y141.095
X173.692 Y141.58
X173.71 Y141.61
X174.007 Y142.119
X174.027 Y142.155
X174.327 Y142.687
X174.347 Y142.722
X174.651 Y143.279
X174.673 Y143.321
X174.977 Y143.901
X174.998 Y143.941
X175.303 Y144.546
X175.324 Y144.589
X175.628 Y145.218
X175.652 Y145.27
X175.952 Y145.924
X175.972 Y145.967
X176.269 Y146.644
X176.293 Y146.701
X176.583 Y147.403
X176.604 Y147.456
X176.887 Y148.182
X176.91 Y148.242
X177.183 Y148.992
X177.203 Y149.05
X177.466 Y149.824
X177.486 Y149.885
X177.737 Y150.682
X177.758 Y150.75
X177.994 Y151.57
X178.012 Y151.634
X178.233 Y152.476
X178.25 Y152.546
X178.454 Y153.411
X178.47 Y153.483
X178.655 Y154.37
X178.67 Y154.445
X178.834 Y155.352
X178.846 Y155.425
X178.989 Y156.353
X178.999 Y156.429
X179.119 Y157.376
X179.129 Y157.458
X179.223 Y158.424
X179.229 Y158.501
X179.298 Y159.485
X179.303 Y159.567
X179.344 Y160.568
X179.346 Y160.649
X179.359 Y161.665
Y161.748
X179.342 Y162.778
X179.339 Y162.859
X179.292 Y163.901
X179.287 Y163.986
X179.208 Y165.039
X179.2 Y165.125
X179.088 Y166.187
X179.078 Y166.269
X178.934 Y167.337
X178.922 Y167.422
X178.744 Y168.495
X178.728 Y168.58
X178.516 Y169.655
X178.498 Y169.74
X178.252 Y170.814
X178.231 Y170.898
X177.951 Y171.97
X177.927 Y172.058
X177.612 Y173.124
X177.586 Y173.207
X177.237 Y174.267
X177.206 Y174.356
X176.822 Y175.405
X176.79 Y175.488
X176.373 Y176.525
X176.337 Y176.611
X175.886 Y177.635
X175.847 Y177.72
X175.364 Y178.726
X175.322 Y178.81
X174.806 Y179.799
X174.761 Y179.881
X174.215 Y180.849
X174.166 Y180.934
X173.588 Y181.881
X173.536 Y181.962
X172.929 Y182.885
X172.874 Y182.966
X172.238 Y183.864
X172.179 Y183.944
X171.515 Y184.816
X171.454 Y184.893
X170.764 Y185.737
X170.7 Y185.813
X169.984 Y186.629
X169.917 Y186.703
X169.177 Y187.489
X169.108 Y187.56
X168.345 Y188.316
X168.273 Y188.385
X167.488 Y189.11
X167.412 Y189.177
X167.299 Y189.274
Z-14.175
X166.606 Y189.87
X166.528 Y189.934
X165.703 Y190.594
X165.627 Y190.654
X164.785 Y191.282
X164.704 Y191.34
X163.845 Y191.935
X163.76 Y191.992
X162.886 Y192.552
X162.804 Y192.602
X161.917 Y193.129
X161.829 Y193.179
X160.93 Y193.671
X160.843 Y193.717
X159.933 Y194.175
X159.847 Y194.216
X158.929 Y194.64
X158.838 Y194.681
X157.912 Y195.07
X157.819 Y195.107
X157.563 Y195.204
Z-15.6 F600
X156.886 Y195.461 F1000
X156.797 Y195.493
X155.861 Y195.813
X155.766 Y195.843
X154.826 Y196.128
X154.733 Y196.155
X153.791 Y196.406
X153.697 Y196.429
X152.755 Y196.646
X152.662 Y196.666
X151.721 Y196.85
X151.624 Y196.867
X150.686 Y197.017
X150.593 Y197.031
X149.658 Y197.149
X149.561 Y197.159
X148.632 Y197.244
X148.535 Y197.251
X147.611 Y197.304
X147.513 Y197.308
X146.598 Y197.329
X146.502 Y197.33
X145.594 Y197.32
X145.498 Y197.317
X144.601 Y197.277
X144.504 Y197.271
X143.617 Y197.201
X143.517 Y197.192
X142.642 Y197.092
X142.545 Y197.079
X141.682 Y196.95
X141.588 Y196.934
X140.739 Y196.778
X140.638 Y196.758
X139.803 Y196.573
X139.709 Y196.55
X138.889 Y196.339
X138.795 Y196.313
X137.989 Y196.076
X137.893 Y196.046
X137.103 Y195.783
X137.009 Y195.75
X136.235 Y195.462
X136.14 Y195.425
X135.383 Y195.112
X135.298 Y195.075
X134.557 Y194.74
X134.464 Y194.696
X133.741 Y194.337
X133.656 Y194.293
X132.949 Y193.912
X132.863 Y193.864
X132.175 Y193.462
X132.092 Y193.411
X131.422 Y192.988
X131.339 Y192.934
X130.687 Y192.49
X130.611 Y192.436
X129.978 Y191.974
X129.899 Y191.914
X129.286 Y191.433
X129.212 Y191.373
X128.618 Y190.874
X128.542 Y190.808
X127.969 Y190.291
X127.902 Y190.229
X127.349 Y189.697
X127.278 Y189.626
X126.746 Y189.077
X126.679 Y189.006
X126.169 Y188.442
X126.106 Y188.369
X125.617 Y187.79
X125.555 Y187.714
X125.089 Y187.122
X125.03 Y187.045
X124.586 Y186.44
X124.527 Y186.357
X124.106 Y185.738
X124.052 Y185.654
X123.655 Y185.024
X123.604 Y184.941
X123.23 Y184.3
X123.18 Y184.21
X122.83 Y183.557
X122.784 Y183.467
X122.459 Y182.805
X122.414 Y182.709
X122.114 Y182.036
X122.074 Y181.943
X121.799 Y181.262
X121.761 Y181.161
X121.512 Y180.47
X121.479 Y180.375
X121.255 Y179.677
X121.225 Y179.575
X121.027 Y178.868
X120.999 Y178.763
X120.828 Y178.049
X120.806 Y177.947
X120.661 Y177.226
X120.641 Y177.116
X120.524 Y176.388
X120.51 Y176.286
X120.419 Y175.551
X120.408 Y175.447
X120.344 Y174.707
X120.336 Y174.598
X120.3 Y173.851
X120.297 Y173.744
X120.289 Y172.991
X120.29 Y172.89
X120.309 Y172.132
X120.313 Y172.028
X120.36 Y171.265
X120.368 Y171.167
X120.442 Y170.398
G3 X120.526 Y169.933 I2.837 J0.273
G1 X121.185 Y167.475
X121.203 Y157.51
G3 X121.633 Y156.01 I2.85 J0.005
G1 X125.94 Y149.087
X125.964 Y148.677
Y148.67
X126.033 Y147.549
X126.034 Y147.545
X126.104 Y146.435
Y146.43
X126.175 Y145.332
Y145.328
X126.247 Y144.241
X126.248 Y144.236
X126.321 Y143.161
Y143.156
X126.395 Y142.092
Y142.09
X126.469 Y141.037
X126.47 Y141.029
X126.546 Y139.988
Y139.984
X126.623 Y138.954
Y138.948
X126.701 Y137.929
X126.702 Y137.924
X126.781 Y136.916
Y136.911
X126.861 Y135.914
Y135.912
X126.941 Y134.926
X126.942 Y134.917
X127.024 Y133.942
X127.025 Y133.937
X127.108 Y132.973
Y132.97
X127.191 Y132.016
X127.192 Y132.007
X127.277 Y131.065
Y131.062
X127.362 Y130.129
X127.363 Y130.12
X127.45 Y129.198
Y129.195
X127.537 Y128.284
Y128.278
X127.625 Y127.376
X127.626 Y127.37
X127.715 Y126.479
X127.716 Y126.472
X127.806 Y125.591
X127.807 Y125.582
X127.93 Y124.411
Z-14.175
X127.99 Y123.849
X127.991 Y123.837
X128.177 Y122.143
X128.178 Y122.131
X128.367 Y120.474
X128.369 Y120.461
X128.561 Y118.842
X128.562 Y118.83
X128.757 Y117.246
X128.759 Y117.231
X128.958 Y115.682
X128.96 Y115.67
X129.161 Y114.154
X129.163 Y114.14
X129.307 Y113.094
Z-15.6 F600
X129.367 Y112.658 F1000
X129.369 Y112.644
X129.576 Y111.193
X129.577 Y111.181
X129.786 Y109.761
X129.789 Y109.747
X130.001 Y108.356
X130.003 Y108.342
X130.217 Y106.981
X130.219 Y106.967
X130.436 Y105.632
X130.438 Y105.618
X130.657 Y104.311
X130.659 Y104.3
X130.879 Y103.018
X130.882 Y103.003
X131.105 Y101.745
X131.107 Y101.731
X131.332 Y100.497
X131.334 Y100.485
X131.56 Y99.274
X131.563 Y99.261
X131.791 Y98.071
X131.794 Y98.058
X132.024 Y96.889
X132.026 Y96.877
X132.257 Y95.728
X132.26 Y95.715
X132.493 Y94.585
X132.495 Y94.573
X132.729 Y93.462
X132.732 Y93.45
X132.967 Y92.356
X132.969 Y92.345
X133.205 Y91.267
X133.208 Y91.253
X133.446 Y90.191
X133.448 Y90.182
X133.686 Y89.135
X133.688 Y89.124
X133.927 Y88.091
X133.93 Y88.08
X134.17 Y87.06
X134.172 Y87.05
X134.413 Y86.043
X134.415 Y86.035
X134.656 Y85.04
X134.659 Y85.03
X134.901 Y84.047
X134.903 Y84.037
X135.146 Y83.064
X135.148 Y83.057
X135.391 Y82.095
X135.393 Y82.085
X135.879 Y80.189
X135.883 Y80.174
X136.371 Y78.313
X136.375 Y78.3
X136.864 Y76.47
X136.866 Y76.461
X137.354 Y74.659
X137.357 Y74.648
X137.846 Y72.871
X137.848 Y72.863
X138.336 Y71.11
X138.338 Y71.103
X138.825 Y69.371
X138.827 Y69.364
X139.313 Y67.652
X139.315 Y67.646
X139.8 Y65.953
X139.802 Y65.948
G3 X140.095 Y64.935 I732.39 J211.338
G1 X140.152 Y64.76
G3 X154.042 Y58.243 I10.204 J3.686
G2 X154.772 Y57.9 I0.194 J-0.536 F800
G1 X154.966 Y57.364
X154.996 Y57.28 Z-15.593
X155.026 Y57.199 Z-15.572
X155.054 Y57.121 Z-15.538
X155.08 Y57.049 Z-15.491
X155.103 Y56.985 Z-15.433
X155.122 Y56.931 Z-15.365
X155.138 Y56.887 Z-15.289
X155.15 Y56.854 Z-15.206
X155.157 Y56.835 Z-15.119
X155.159 Y56.828 Z-15.03
Z15 F1000

G28 G91 Z0
G90
G28 G91 X0 Y0
G90
M5
M30
